<?xml version="1.0" encoding="UTF-8"?>
<map version="1.10" tiledversion="1.11.2" orientation="orthogonal" renderorder="right-down" width="64" height="48" tilewidth="16" tileheight="16" infinite="0" backgroundcolor="#171e18" nextlayerid="11" nextobjectid="216">
 <properties>
  <property name="authoring" value="由 Tiled 1.11 脚本 API 创建，可直接逐格编辑"/>
  <property name="description" value="两岸四城，以北桥和南桥为战略咽喉的地图探索关卡。"/>
  <property name="title" value="双桥关"/>
 </properties>
 <tileset firstgid="1" source="terrain.tsx"/>
 <layer id="1" name="01 地形 · 草地与河岸" width="64" height="48">
  <data encoding="csv">
33,33,33,33,33,33,33,33,33,33,33,33,33,33,33,33,33,33,33,33,33,33,33,33,33,33,33,33,33,33,33,33,33,33,33,33,33,33,33,33,33,33,33,33,33,33,33,33,33,33,33,33,33,33,33,33,33,33,33,33,33,33,33,33,
33,33,33,33,33,33,33,33,33,33,33,33,33,33,33,33,33,33,33,33,33,33,33,33,33,33,33,33,33,33,33,33,33,33,33,33,33,33,33,33,33,33,33,33,33,33,33,33,33,33,33,33,33,33,33,33,33,33,33,33,33,33,33,33,
33,33,33,33,33,33,33,33,33,33,33,33,33,21,21,21,21,21,21,21,1,1,1,1,1,1,1,1,1,1,1,28,33,33,33,20,1,1,1,1,1,1,1,1,1,1,1,1,21,21,21,33,33,33,33,33,33,33,33,33,33,33,33,33,
33,33,33,33,33,33,33,33,33,33,2147483669,1,1,1,1,1,1,1,1,1,1,1,1,1,1,1,1,1,1,1,1,21,33,33,33,20,1,1,1,1,1,1,1,1,1,1,1,1,1,1,1,1,21,28,33,33,33,33,33,33,33,33,33,33,
33,33,33,33,33,33,33,33,33,22,1,1,1,1,1,1,1,1,1,1,1,1,1,1,1,1,1,1,1,1,1,2147483670,33,33,33,33,1,1,1,1,1,1,1,1,1,1,1,1,1,1,1,1,1,1,21,33,33,33,33,33,33,33,33,33,
33,33,33,33,33,33,33,33,22,1,1,1,1,1,1,1,1,1,1,1,1,1,1,1,1,1,1,1,1,1,1,1,33,33,33,33,1,1,1,1,1,1,1,1,1,1,1,1,1,1,1,1,1,1,1,21,33,33,33,33,33,33,33,33,
33,33,33,33,33,33,33,22,1,1,1,1,1,1,1,1,1,1,1,1,1,1,1,1,1,1,1,1,1,1,1,1,33,33,33,33,1,1,1,1,1,1,1,1,1,1,1,1,1,1,1,1,1,1,1,1,21,33,33,33,33,33,33,33,
33,33,33,33,33,33,22,1,1,1,1,1,1,1,1,1,1,1,1,1,1,1,1,1,1,1,1,1,1,1,1,1,33,33,33,33,1,1,1,1,1,1,1,1,1,1,1,1,1,1,1,1,1,1,1,1,1,21,33,33,33,33,33,33,
33,33,33,33,33,22,1,1,1,1,1,1,1,1,1,1,1,1,1,1,1,1,1,1,1,1,1,1,1,1,1,1,33,33,33,33,1,1,1,1,1,1,1,1,1,1,1,1,1,1,1,1,1,1,1,1,1,1,21,33,33,33,33,33,
33,33,33,33,2147483671,1,1,1,1,1,1,1,1,1,1,1,1,1,1,1,1,1,1,1,1,1,1,1,1,1,1,1073741847,33,33,33,22,1,1,1,1,1,1,1,1,1,1,1,1,1,1,1,1,1,1,1,1,1,1,1,21,33,33,33,33,
33,33,33,24,1,1,1,1,1,1,1,1,1,1,1,1,1,1,1,1,1,1,1,1,1,1,1,1,1,1,19,33,33,33,2147483671,1,1,1,1,1,1,1,1,1,1,1,1,1,1,1,1,1,1,1,1,1,1,1,1,1,21,33,33,33,
33,33,33,20,1,1,1,1,1,1,1,1,1,1,1,1,1,1,1,1,1,1,1,1,1,1,1,1,1,1,33,33,33,33,1,1,1,1,1,1,1,1,1,1,1,1,1,1,1,1,1,1,1,1,1,1,1,1,1,1,1,28,33,33,
33,33,33,1,1,1,1,1,1,1,1,1,1,1,1,1,1,1,1,1,1,1,1,1,1,1,1,1,1,1,33,33,33,33,1,1,1,1,1,1,1,1,1,1,1,1,1,1,1,1,1,1,1,1,1,1,1,1,1,1,1,1073741847,33,33,
33,33,33,1,1,1,1,1,1,1,1,1,1,1,1,1,1,1,1,1,1,1,1,1,1,1,1,1,1,1,33,33,33,33,1,1,1,1,1,1,1,1,1,1,1,1,1,1,1,1,1,1,1,1,1,1,1,1,1,1,1,19,33,33,
33,33,33,1,1,1,1,1,1,1,1,1,1,1,1,1,1,1,1,1,1,1,1,1,1,1,1,1,1,1,33,33,33,33,1,1,1,1,1,1,1,1,1,1,1,1,1,1,1,1,1,1,1,1,1,1,1,1,1,1,1,1073741847,33,33,
33,33,33,1,1,1,1,1,1,1,1,1,1,1,1,1,1,1,1,1,1,1,1,1,1,1,1,1,1,1,33,33,33,33,1,1,1,1,1,1,1,1,1,1,1,1,1,1,1,1,1,1,1,1,1,1,1,1,1,1,1,1073741847,33,33,
33,33,33,1,1,1,1,1,1,1,1,1,1,1,1,1,1,1,1,1,1,1,1,1,1,1,1,1,1,1073741847,33,33,33,22,1,1,1,1,1,1,1,1,1,1,1,1,1,1,1,1,1,1,1,1,1,1,1,1,1,1,1,33,33,33,
33,33,33,1,1,1,1,1,1,1,1,1,1,1,1,1,1,1,1,1,1,1,1,1,1,1,1,1,19,33,33,33,2147483671,1,1,1,1,1,1,1,1,1,1,1,1,1,1,1,1,1,1,1,1,1,1,1,1,1,1,1,1,33,33,33,
33,33,33,1,1,1,1,1,1,1073741845,29,3221225502,3221225493,3221225493,1,1,1,1,1,1,1,1,1,1,1,1,1,1,25,33,33,33,20,1,1,1,1,1,1,1,1,1,1,1,1,1,1,1,1,1,1,1,1,1,1,1,1,1,1,1,1,23,33,33,
33,33,24,1,1,1,1,1,19,33,33,33,33,33,3221225502,1,1,1,1,1,1,1,1,1,1,1,1,1,33,33,33,33,1,1,1,1,1,1,1,1,1,1,1,1,1,1,1,1,1,1,1,1,1,1,1,1,1,1,1,1,1,21,33,33,
33,33,22,1,1,1,1,19,33,33,33,33,33,33,33,20,1,1,1,1,1,1,1,1,1,1,1,1,33,33,33,33,1,1,1,1,1,1,1,1,1,1,1,1,1,1,1,1,1,1,1,1,1,1,1,1,1,1,1,1,1,2147483670,33,33,
33,33,20,1,1,1,1,19,33,33,33,33,33,33,33,22,1,1,1,1,1,1,1,1,1,1,1,1,33,33,33,33,1,1,1,1,1,1,1,1,1,1,1,1,1,1,1,1,1,1,1,1,1,1,1,1,1,1,1,1,1,1,33,33,
33,33,1,1,1,1,1,2147483670,33,33,33,33,33,33,33,20,1,1,1,1,1,1,1,1,1,1,1,1,33,33,33,33,20,1,1,1,1,1,1,1,1,1,1,1,1,1,1,1,1,1,1,1,1,1,1,1,1,1,1,1,1,1,33,33,
33,33,20,1,1,1,1,1,21,33,33,33,33,33,2147483671,1,1,1,1,1,1,1,1,1,1,1,1,1,1073741847,33,33,33,20,1,1,1,1,1,1,1,1,1,1,1,1,1,1,1,1,1,1,1,1,1,1,1,1,1,1,1,1,1,33,33,
33,33,20,1,1,1,1,1,1,21,21,21,21,21,1,1,1,1,1,1,1,1,1,1,1,1,1,1,2147483670,33,33,33,26,1,1,1,1,1,1,1,1,1,1,1,1,1,1,1,1,1,1,1,1,1,1,1,1,1,1,1,1,19,33,33,
33,33,26,1,1,1,1,1,1,1,1,1,1,1,1,1,1,1,1,1,1,1,1,1,1,1,1,1,1,28,33,33,33,20,1,1,1,1,1,1,1,1,1,1,1,1,1,1,1,1,1,1,1,1,1,1,1,1,1,1,1,19,33,33,
33,33,33,1,1,1,1,1,1,1,1,1,1,1,1,1,1,1,1,1,1,1,1,1,1,1,1,1,1,2147483670,33,33,33,3221225502,1,1,1,1,1,1,1,1,1,1,1,1,1,1,1,1,1,1,1,1,1,1,1,1,1,1,1,1073741847,33,33,
33,33,33,1,1,1,1,1,1,1,1,1,1,1,1,1,1,1,1,1,1,1,1,1,1,1,1,1,1,1,28,33,33,33,1,1,1,1,1,1,1,1,1,1,1,1,1,1,1,1,1,1,1,1,1,1,1,1,1,1,1,33,33,33,
33,33,33,1,1,1,1,1,1,1,1,1,1,1,1,1,1,1,1,1,1,1,1,1,1,1,1,1,1,1,21,33,33,33,3221225502,1,1,1,1,1,1,1,1,1,1,1,1,1,1,1,1,1,1,1,1,1,1,1,1,1,1,23,33,33,
33,33,24,1,1,1,1,1,1,1,1,1,1,1,1,1,1,1,1,1,1,1,1,1,1,1,1,1,1,1,1,33,33,33,33,1,1,1,1,1,1,1,1,1,1,1,1,1,1,1,1,1,1,1,1,1,1,1,1,1,1,1073741847,33,33,
33,33,22,1,1,1,1,1,1,1,1,1,1,1,1,1,1,1,1,1,1,1,1,1,1,1,1,1,1,1,19,33,33,33,24,1,1,1,1,1,1,1,1,1,1,1,1,1,1,1,1,1,1,1,1,1,1,1,1,1,1,2147483670,33,33,
33,33,20,1,1,1,1,1,1,1,1,1,1,1,1,1,1,1,1,1,1,1,1,1,1,1,1,1,1,1073741845,33,33,33,2147483669,1,1,1,1,1,1,1,1,1,1,1,1,1,1,1,1,1,1,1,1,1,1,1,1,1,1,1,1,33,33,
33,33,20,1,1,1,1,1,1,1,1,1,1,1,1,1,1,1,1,1,1,1,1,1,1,1,1,1,19,33,33,33,22,1,1,1,1,1,1,1,1,1,1,1,1,1,1,1,1,1,1,1,1,1,1,1,1,1,1,1,1,1,33,33,
33,33,2147483671,1,1,1,1,1,1,1,1,1,1,1,1,1,1,1,1,1,1,1,1,1,1,1,1,1,33,33,33,33,1,1,1,1,1,1,1,1,1,1,1,1,1,1,1,1,1,1,1,1,1,1,1,1,1,1,1,1,1,19,33,33,
33,33,33,1,1,1,1,1,1,1,1,1,1,1,1,1,1,1,1,1,1,1,1,1,1,1,1,1,33,33,33,33,1,1,1,1,1,1,1,1,1,1,1,1,1,1,1,1,1,1,1,1,1,1,1,1,1,1,1,1,1,1073741847,33,33,
33,33,33,20,1,1,1,1,1,1,1,1,1,1,1,1,1,1,1,1,1,1,1,1,1,1,1,1,33,33,33,33,1,1,1,1,1,1,1,1,1,1,1,1,1,1,1,1,1,1,1,1,1,1,1,1,1,1,1,1,1,33,33,33,
33,33,33,33,1,1,1,1,1,1,1,1,1,1,1,1,1,1,1,1,1,1,1,1,1,1,1,1,23,33,33,33,20,1,1,1,1,1,1,1,1,1,1,1,1,1,1,1,1,1,1,1,1,1,1,1,1,1,1,1,1073741847,33,33,33,
33,33,33,33,20,1,1,1,1,1,1,1,1,1,1,1,1,1,1,1,1,1,1,1,1,1,1,1,1,21,33,33,33,20,1,1,1,1,1,1,1,1,1,1,1,1,1,1,1,1,1,1,1,1,1,1,1,1,1,1,33,33,33,33,
33,33,33,33,33,1,1,1,1,1,1,1,1,1,1,1,1,1,1,1,1,1,1,1,1,1,1,1,1,1,21,33,33,33,3221225502,1,1,1,1,1,1,1,1,1,1,1,1,1,1,1,1,1,1,1,1,1,1,1,1,19,33,33,33,33,
33,33,33,33,33,20,1,1,1,1,1,1,1,1,1,1,1,1,1,1,1,1,1,1,1,1,1,1,1,1,19,33,33,33,2147483671,1,1,1,1,1,1,1,1,1,1,1,1,1,1,1,1,1,1,1,1,1,1,1,1,29,33,33,33,33,
33,33,33,33,33,3221225502,1,1,1,1,1,1,1,1,1,1,1,1,1,1,1,1,1,1,1,1,1,1,1,1,29,33,33,33,20,1,1,1,1,1,1,1,1,1,1,1,1,1,1,1,1,1,1,1,1,1,1,1,19,33,33,33,33,33,
33,33,33,33,33,33,20,1,1,1,1,1,1,1,1,1,1,1,1,1,1,1,1,1,1,1,1,1,1,19,33,33,33,24,1,1,1,1,1,1,1,1,1,1,1,1,1,1,1,1,1,1,1,1,1,1,1,1,25,33,33,33,33,33,
33,33,33,33,33,33,33,3221225493,1,1,1,1,1,1,1,1,1,1,1,1,1,1,1,1,1,1,1,1,1,29,33,33,33,22,1,1,1,1,1,1,1,1,1,1,1,1,1,1,1,1,1,1,1,1,1,1,1073741845,25,33,33,33,33,33,33,
33,33,33,33,33,33,33,33,3221225502,1,1,1,1,1,1,1,1,1,1,1,1,1,1,1,1,1,1,1,1,33,33,33,33,1,1,1,1,1,1,1,1,1,1,1,1,1,1,1,1,1,1,1,1,1,1073741845,25,33,33,33,33,33,33,33,33,
33,33,33,33,33,33,33,33,33,33,3221225502,3221225493,1,1,1,1,1,1,1,1,1,1,1,1,1,1,1,1,19,33,33,33,22,1,1,1,1,1,1,1,1,1,1,1,1,1,1,1,1,1,1,1073741845,1073741845,25,33,33,33,33,33,33,33,33,33,33,
33,33,33,33,33,33,33,33,33,33,33,33,33,33,33,33,3221225502,3221225502,3221225502,3221225502,3221225493,1073741845,3221225493,1,1,1,1,1073741845,25,33,33,33,3221225502,1073741845,3221225493,1,1,1,1,1073741845,1073741845,1073741845,1073741845,3221225502,3221225502,3221225502,3221225502,3221225502,3221225502,25,33,33,33,33,33,33,33,33,33,33,33,33,33,33,
33,33,33,33,33,33,33,33,33,33,33,33,33,33,33,33,33,33,33,33,33,33,33,33,33,33,33,33,33,33,33,33,33,33,33,33,33,33,33,33,33,33,33,33,33,33,33,33,33,33,33,33,33,33,33,33,33,33,33,33,33,33,33,33,
33,33,33,33,33,33,33,33,33,33,33,33,33,33,33,33,33,33,33,33,33,33,33,33,33,33,33,33,33,33,33,33,33,33,33,33,33,33,33,33,33,33,33,33,33,33,33,33,33,33,33,33,33,33,33,33,33,33,33,33,33,33,33,33
</data>
 </layer>
 <layer id="2" name="02 道路 · 双桥" width="64" height="48">
  <data encoding="csv">
0,0,0,0,0,0,0,0,0,0,0,0,0,0,0,0,0,0,0,0,0,0,0,0,0,0,0,0,0,0,0,0,0,0,0,0,0,0,0,0,0,0,0,0,0,0,0,0,0,0,0,0,0,0,0,0,0,0,0,0,0,0,0,0,
0,0,0,0,0,0,0,0,0,0,0,0,0,0,0,0,0,0,0,0,0,0,0,0,0,0,0,0,0,0,0,0,0,0,0,0,0,0,0,0,0,0,0,0,0,0,0,0,0,0,0,0,0,0,0,0,0,0,0,0,0,0,0,0,
0,0,0,0,0,0,0,0,0,0,0,0,0,0,0,0,0,0,0,0,0,0,0,0,0,0,0,0,0,0,0,0,0,0,0,0,0,0,0,0,0,0,0,0,0,0,0,0,0,0,0,0,0,0,0,0,0,0,0,0,0,0,0,0,
0,0,0,0,0,0,0,0,0,0,0,0,0,0,0,0,0,0,0,0,0,0,0,0,0,0,0,0,0,0,0,0,0,0,0,0,0,0,0,0,0,0,0,0,0,0,0,0,0,0,0,0,0,0,0,0,0,0,0,0,0,0,0,0,
0,0,0,0,0,0,0,0,0,0,0,0,0,0,0,0,0,0,0,0,0,0,0,0,0,0,0,0,0,0,0,0,0,0,0,0,0,0,0,0,0,0,0,0,0,0,0,0,0,0,0,0,0,0,0,0,0,0,0,0,0,0,0,0,
0,0,0,0,0,0,0,0,0,0,0,0,0,0,0,0,0,0,0,0,0,0,0,0,0,0,0,0,0,0,0,0,0,0,0,0,0,0,0,0,0,0,0,0,0,0,0,0,0,0,0,0,0,0,0,0,0,0,0,0,0,0,0,0,
0,0,0,0,0,0,0,0,0,0,0,0,0,0,0,0,0,0,0,0,0,0,0,0,0,0,0,0,0,0,0,0,0,0,0,0,0,0,0,0,0,0,0,0,0,0,0,0,0,0,0,0,0,0,0,0,0,0,0,0,0,0,0,0,
0,0,0,0,0,0,0,0,0,0,0,0,0,0,0,0,0,0,0,0,0,0,0,0,0,0,0,0,0,0,0,0,0,0,0,0,0,0,0,0,0,0,0,0,0,0,0,0,0,0,0,0,0,0,0,0,0,0,0,0,0,0,0,0,
0,0,0,0,0,0,0,0,0,0,0,0,0,0,0,0,0,0,0,0,0,0,0,0,0,0,0,0,0,0,0,0,0,0,0,0,0,0,0,0,0,0,0,0,0,0,0,0,0,0,0,0,0,0,0,0,0,0,0,0,0,0,0,0,
0,0,0,0,0,0,0,0,0,0,0,0,0,0,0,0,0,0,0,0,0,0,0,0,0,0,0,0,0,0,0,0,0,0,0,0,0,0,0,0,0,0,0,0,0,0,0,0,0,0,0,0,0,0,0,0,0,0,0,0,0,0,0,0,
0,0,0,0,0,0,0,0,0,0,0,0,0,0,0,0,0,0,0,0,0,0,0,0,0,0,0,0,0,0,0,0,0,0,0,0,0,0,0,0,0,0,0,0,0,0,0,0,0,0,0,0,0,0,0,0,0,0,0,0,0,0,0,0,
0,0,0,0,0,0,0,0,0,0,0,0,0,0,0,47,38,38,48,3221225480,0,0,0,0,0,0,0,0,0,0,0,0,0,0,0,0,0,0,0,0,0,0,0,0,0,0,0,0,0,0,0,0,0,0,0,0,0,0,0,0,0,0,0,0,
0,0,0,0,0,0,0,0,0,0,0,0,0,47,37,37,36,37,37,37,37,37,38,38,38,38,38,38,38,38,0,0,0,0,0,38,38,0,0,0,0,0,0,0,0,0,0,0,0,0,0,0,0,0,0,0,0,0,0,0,0,0,0,0,
0,0,0,0,0,0,0,0,0,0,0,3221225481,2147483687,37,1073741863,0,0,0,0,9,49,36,36,36,36,36,36,36,36,73,73,73,73,73,73,36,37,37,37,38,0,0,0,0,3221225481,47,38,39,0,0,0,0,0,0,0,0,0,0,0,0,0,0,0,0,
0,0,0,0,0,0,0,0,0,0,38,37,1073741863,50,0,0,0,0,0,0,0,0,0,0,0,0,0,0,0,0,0,0,0,0,0,0,0,8,36,37,37,37,38,37,37,37,37,41,0,0,0,0,0,0,0,0,0,0,0,0,0,0,0,0,
0,0,0,0,0,0,0,0,47,37,37,50,0,0,0,0,0,0,0,0,0,0,0,0,0,0,0,0,0,0,0,0,0,0,0,0,0,0,0,0,8,36,36,36,8,37,1073741863,0,0,0,0,0,0,0,0,0,0,0,0,0,0,0,0,0,
0,0,0,0,0,0,0,0,37,37,37,37,38,0,0,0,0,0,0,0,0,0,0,0,0,0,0,0,0,0,0,0,0,0,0,0,0,0,0,0,0,0,0,0,2147483687,37,0,0,0,0,0,0,0,0,0,0,0,0,0,0,0,0,0,0,
0,0,0,0,0,0,0,0,37,50,8,36,37,37,37,38,0,0,0,0,0,0,0,0,0,0,0,0,0,0,0,0,0,0,0,0,0,0,0,0,0,0,0,2147483687,37,0,0,0,0,0,0,0,0,0,0,0,0,0,0,0,0,0,0,0,
0,0,0,0,0,0,0,47,37,0,0,0,0,0,36,37,37,37,39,0,0,0,0,0,0,0,0,0,0,0,0,0,0,0,0,0,0,0,0,0,0,0,47,37,50,0,0,0,0,0,0,0,0,0,0,0,0,0,0,0,0,0,0,0,
0,0,0,0,0,0,0,44,0,0,0,0,0,0,0,0,8,2147483689,37,0,0,0,0,0,0,0,0,0,0,0,0,0,0,0,0,0,0,0,0,0,0,0,44,1073741863,0,0,0,0,0,0,0,0,0,0,0,0,0,0,0,0,0,0,0,0,
0,0,0,0,0,0,0,0,0,0,0,0,0,0,0,0,0,0,37,43,0,0,0,0,0,0,0,0,0,0,0,0,0,0,0,0,0,0,0,0,0,0,37,43,0,0,0,0,0,0,0,0,0,0,0,0,0,0,0,0,0,0,0,0,
0,0,0,0,0,0,3221225481,0,0,0,0,0,0,0,0,0,0,0,42,37,0,0,0,0,0,0,0,0,0,0,0,0,0,0,0,0,0,0,0,0,0,6,37,0,0,0,0,0,0,0,0,0,0,0,0,0,0,0,0,0,0,0,0,0,
0,0,0,0,0,0,1073741864,0,0,0,0,0,0,0,0,0,0,0,0,37,43,0,0,0,0,0,0,0,0,0,0,0,0,0,0,0,0,0,0,0,0,47,37,0,0,0,0,0,0,0,0,0,0,0,0,0,0,0,0,0,0,0,0,0,
0,0,0,0,0,0,1073741864,43,0,0,0,0,0,0,0,0,0,0,0,42,37,0,0,0,0,0,0,0,0,0,0,0,0,0,0,0,0,0,0,0,0,1073741864,1073741863,0,0,0,0,0,0,0,0,0,0,0,0,0,0,0,0,0,0,0,0,0,
0,0,0,0,0,0,1073741864,37,0,0,0,0,0,0,0,0,0,0,0,0,37,43,0,0,0,0,0,0,0,0,0,0,0,0,0,0,0,0,0,0,0,1073741864,37,0,0,0,0,0,0,0,0,0,0,0,0,0,0,0,0,0,0,0,0,0,
0,0,0,0,0,0,6,37,0,0,0,0,0,0,0,0,0,0,0,0,42,41,0,0,0,0,0,0,0,0,0,0,0,0,0,0,0,0,0,0,0,0,37,48,0,0,0,0,0,0,0,0,0,0,0,0,0,0,0,0,0,0,0,0,
0,0,0,0,0,0,0,37,0,0,0,0,0,0,0,0,0,0,0,0,0,0,0,0,0,0,0,0,0,0,0,0,0,0,0,0,0,0,0,0,0,0,44,43,0,0,0,0,0,0,0,0,0,0,0,0,0,0,0,0,0,0,0,0,
0,0,0,0,0,0,0,37,43,0,0,0,0,0,0,0,0,0,0,0,0,0,0,0,0,0,0,0,0,0,0,0,0,0,0,0,0,0,0,0,0,0,49,37,0,0,0,0,0,0,0,0,0,0,0,0,0,0,0,0,0,0,0,0,
0,0,0,0,0,0,0,44,43,0,0,0,0,0,0,0,0,0,0,0,0,0,0,0,0,0,0,0,0,0,0,0,0,0,0,0,0,0,0,0,0,0,0,37,43,0,0,0,0,0,0,0,0,0,0,0,0,0,0,0,0,0,0,0,
0,0,0,0,0,0,0,42,37,0,0,0,0,0,0,0,0,0,0,0,0,0,0,0,0,0,0,0,0,0,0,0,0,0,0,0,0,0,0,0,0,0,0,42,37,0,0,0,0,0,0,0,0,0,0,0,0,0,0,0,0,0,0,0,
0,0,0,0,0,0,0,0,37,43,0,0,0,0,0,0,0,0,0,0,0,0,0,0,0,0,0,0,0,0,0,0,0,0,0,0,0,0,0,0,0,0,0,0,37,37,0,0,0,0,0,0,0,0,0,0,0,0,0,0,0,0,0,0,
0,0,0,0,0,0,0,0,42,37,0,0,0,0,0,0,0,0,0,0,0,0,0,0,0,0,0,0,0,0,0,0,0,0,0,0,0,0,0,0,0,0,0,0,8,37,48,0,0,0,0,0,0,0,0,0,0,0,0,0,0,0,0,0,
0,0,0,0,0,0,0,0,0,37,43,0,0,0,0,0,0,0,0,0,0,0,0,0,0,0,0,0,0,0,0,0,0,0,0,0,0,0,0,0,0,0,0,0,0,1073741864,37,0,0,0,0,0,0,0,0,0,0,0,0,0,0,0,0,0,
0,0,0,0,0,0,0,0,0,42,37,0,0,0,3221225480,3221225481,38,38,38,38,38,38,38,38,38,38,38,38,0,0,0,0,0,38,48,0,0,0,0,0,0,0,0,0,0,0,37,43,0,0,0,0,0,0,0,0,0,0,0,0,0,0,0,0,
0,0,0,0,0,0,0,0,0,0,37,37,37,37,37,37,37,36,36,36,36,36,36,36,36,36,36,73,73,73,73,73,73,36,37,37,0,0,0,0,0,0,0,0,0,0,49,37,48,0,0,0,0,0,0,0,0,0,0,0,0,0,0,0,
0,0,0,0,0,0,0,0,0,0,42,36,36,50,9,0,0,0,0,0,0,0,0,0,0,0,0,0,0,0,0,0,0,0,8,36,37,48,0,0,0,0,0,0,0,0,0,44,37,0,0,0,0,0,0,0,0,0,0,0,0,0,0,0,
0,0,0,0,0,0,0,0,0,0,0,0,0,0,0,0,0,0,0,0,0,0,0,0,0,0,0,0,0,0,0,0,0,0,0,0,42,37,37,0,0,0,0,0,3221225480,3221225480,47,2147483687,37,39,0,0,0,0,0,0,0,0,0,0,0,0,0,0,
0,0,0,0,0,0,0,0,0,0,0,0,0,0,0,0,0,0,0,0,0,0,0,0,0,0,0,0,0,0,0,0,0,0,0,0,0,8,36,37,38,38,37,37,37,37,37,37,36,41,0,0,0,0,0,0,0,0,0,0,0,0,0,0,
0,0,0,0,0,0,0,0,0,0,0,0,0,0,0,0,0,0,0,0,0,0,0,0,0,0,0,0,0,0,0,0,0,0,0,0,0,0,0,42,36,36,36,50,9,9,0,0,0,0,0,0,0,0,0,0,0,0,0,0,0,0,0,0,
0,0,0,0,0,0,0,0,0,0,0,0,0,0,0,0,0,0,0,0,0,0,0,0,0,0,0,0,0,0,0,0,0,0,0,0,0,0,0,0,0,0,0,0,0,0,0,0,0,0,0,0,0,0,0,0,0,0,0,0,0,0,0,0,
0,0,0,0,0,0,0,0,0,0,0,0,0,0,0,0,0,0,0,0,0,0,0,0,0,0,0,0,0,0,0,0,0,0,0,0,0,0,0,0,0,0,0,0,0,0,0,0,0,0,0,0,0,0,0,0,0,0,0,0,0,0,0,0,
0,0,0,0,0,0,0,0,0,0,0,0,0,0,0,0,0,0,0,0,0,0,0,0,0,0,0,0,0,0,0,0,0,0,0,0,0,0,0,0,0,0,0,0,0,0,0,0,0,0,0,0,0,0,0,0,0,0,0,0,0,0,0,0,
0,0,0,0,0,0,0,0,0,0,0,0,0,0,0,0,0,0,0,0,0,0,0,0,0,0,0,0,0,0,0,0,0,0,0,0,0,0,0,0,0,0,0,0,0,0,0,0,0,0,0,0,0,0,0,0,0,0,0,0,0,0,0,0,
0,0,0,0,0,0,0,0,0,0,0,0,0,0,0,0,0,0,0,0,0,0,0,0,0,0,0,0,0,0,0,0,0,0,0,0,0,0,0,0,0,0,0,0,0,0,0,0,0,0,0,0,0,0,0,0,0,0,0,0,0,0,0,0,
0,0,0,0,0,0,0,0,0,0,0,0,0,0,0,0,0,0,0,0,0,0,0,0,0,0,0,0,0,0,0,0,0,0,0,0,0,0,0,0,0,0,0,0,0,0,0,0,0,0,0,0,0,0,0,0,0,0,0,0,0,0,0,0,
0,0,0,0,0,0,0,0,0,0,0,0,0,0,0,0,0,0,0,0,0,0,0,0,0,0,0,0,0,0,0,0,0,0,0,0,0,0,0,0,0,0,0,0,0,0,0,0,0,0,0,0,0,0,0,0,0,0,0,0,0,0,0,0,
0,0,0,0,0,0,0,0,0,0,0,0,0,0,0,0,0,0,0,0,0,0,0,0,0,0,0,0,0,0,0,0,0,0,0,0,0,0,0,0,0,0,0,0,0,0,0,0,0,0,0,0,0,0,0,0,0,0,0,0,0,0,0,0,
0,0,0,0,0,0,0,0,0,0,0,0,0,0,0,0,0,0,0,0,0,0,0,0,0,0,0,0,0,0,0,0,0,0,0,0,0,0,0,0,0,0,0,0,0,0,0,0,0,0,0,0,0,0,0,0,0,0,0,0,0,0,0,0
</data>
 </layer>
 <layer id="3" name="03 山地 · 关隘" width="64" height="48">
  <data encoding="csv">
0,0,0,0,0,0,0,0,0,0,0,0,0,0,0,0,0,0,0,0,0,0,0,0,0,0,0,0,0,0,0,0,0,0,0,0,0,0,0,0,0,0,0,0,0,0,0,0,0,0,0,0,0,0,0,0,0,0,0,0,0,0,0,0,
0,0,0,0,0,0,0,0,0,0,0,0,0,0,0,0,0,0,0,0,0,0,0,0,0,0,0,0,0,0,0,0,0,0,0,0,0,0,0,0,0,0,0,0,0,0,0,0,0,0,0,0,0,0,0,0,0,0,0,0,0,0,0,0,
0,0,0,0,0,0,0,0,0,0,0,0,0,0,0,0,0,0,0,0,0,0,0,0,0,0,0,0,0,0,0,0,0,0,0,0,0,0,0,0,0,0,0,0,0,0,0,0,0,0,0,0,0,0,0,0,0,0,0,0,0,0,0,0,
0,0,0,0,0,0,0,0,0,0,0,0,0,0,0,0,0,0,0,0,0,0,0,0,0,0,0,0,0,0,0,0,0,0,0,0,0,0,0,0,0,0,0,0,0,0,0,0,0,0,0,0,0,0,0,0,0,0,0,0,0,0,0,0,
0,0,0,0,0,0,0,0,0,0,0,0,0,0,0,0,0,0,0,0,0,0,0,0,0,0,0,0,0,0,0,0,0,0,0,0,0,0,0,0,0,0,0,94,93,0,0,0,105,100,92,93,0,0,0,0,0,0,0,0,0,0,0,0,
0,0,0,0,0,0,0,0,0,94,106,0,0,0,0,0,0,0,0,0,94,106,105,100,92,93,0,0,0,0,0,0,0,0,0,0,0,0,0,0,0,0,0,113,114,0,0,0,115,111,112,92,93,0,0,0,0,0,0,0,0,0,0,0,
0,0,0,0,0,0,0,0,0,113,112,92,106,0,0,0,0,0,0,0,113,112,112,104,118,110,0,0,0,0,0,0,0,0,0,0,0,0,0,0,0,105,102,112,116,0,0,0,0,107,103,111,92,106,0,0,0,0,0,0,0,0,0,0,
0,0,0,0,0,0,0,0,0,107,118,103,116,0,0,0,0,0,0,0,107,103,116,0,0,105,100,92,100,92,106,0,0,0,0,0,0,0,0,105,100,112,97,104,110,0,0,0,0,0,0,115,104,108,0,0,0,0,0,0,0,0,0,0,
0,0,0,0,0,0,0,0,0,0,0,109,110,0,0,0,0,0,0,0,0,109,110,0,0,107,103,112,112,104,108,0,0,0,0,0,0,0,0,115,111,116,0,0,0,0,0,0,0,0,0,0,0,0,0,0,0,0,0,0,0,0,0,0,
0,0,0,0,0,0,0,0,0,0,0,0,0,0,0,0,0,0,0,0,0,0,0,0,0,0,0,115,116,0,0,0,0,0,0,0,0,0,0,0,107,110,0,0,0,0,0,0,0,0,0,0,0,0,0,105,106,0,0,0,0,0,0,0,
0,0,0,0,0,0,0,0,0,0,0,0,0,0,0,0,0,0,0,0,0,0,0,0,0,0,0,0,0,0,0,0,0,0,0,0,0,0,0,0,0,0,0,0,0,0,0,0,0,0,0,0,0,0,100,101,116,0,0,0,0,0,0,0,
0,0,0,0,0,0,0,0,0,0,0,0,0,0,0,0,0,0,0,0,0,0,0,0,0,0,0,0,0,0,0,0,0,0,0,0,0,0,0,0,0,0,0,0,0,0,0,0,0,0,0,0,0,0,115,112,92,0,0,0,0,0,0,0,
0,0,0,0,0,0,0,0,0,0,0,0,0,0,0,0,0,0,0,0,0,0,0,0,0,0,0,0,0,0,0,0,0,0,0,0,0,0,0,0,0,0,0,0,0,0,0,0,0,0,0,0,0,0,0,107,108,0,0,0,0,0,0,0,
0,0,0,0,0,0,0,0,0,0,0,0,0,0,0,0,0,0,0,0,0,0,0,0,0,0,0,0,0,0,0,0,0,0,0,0,0,0,0,0,0,0,0,0,0,0,0,0,0,0,0,0,0,0,0,0,0,0,0,0,0,0,0,0,
0,0,0,0,0,0,0,0,0,0,0,0,0,0,0,0,0,0,0,0,0,0,0,0,0,0,0,0,0,0,0,0,0,0,0,0,0,0,0,0,0,0,0,0,0,0,0,0,0,0,0,0,0,0,0,0,0,0,0,0,0,0,0,0,
0,0,0,0,0,0,0,0,0,0,0,0,0,0,0,0,0,0,0,0,0,0,0,0,0,0,0,0,0,0,0,0,0,0,0,0,0,0,0,0,0,0,0,0,0,0,0,0,0,0,0,0,0,0,0,0,0,0,0,0,0,0,0,0,
0,0,0,0,0,0,0,0,0,0,0,0,0,0,0,0,0,0,0,0,0,0,0,0,0,0,0,0,0,0,0,0,0,0,0,0,0,0,0,0,0,0,0,0,0,0,0,0,0,0,0,0,0,0,0,0,0,0,0,0,0,0,0,0,
0,0,0,0,0,0,0,0,0,0,0,0,0,0,0,0,0,0,0,0,0,0,0,0,0,0,0,0,0,0,0,0,0,0,0,0,0,0,0,0,0,0,0,0,0,0,0,0,0,0,0,0,0,0,0,0,0,0,0,0,0,0,0,0,
0,0,0,0,0,0,0,0,0,0,0,0,0,0,0,0,0,0,0,0,0,0,0,0,0,0,0,0,0,0,0,0,0,0,0,0,0,0,0,0,0,0,0,0,0,0,0,0,0,0,0,0,0,0,0,0,0,0,0,0,0,0,0,0,
0,0,0,0,0,0,0,0,0,0,0,0,0,0,0,0,0,0,0,0,0,0,0,0,0,0,0,0,0,0,0,0,0,0,0,0,0,0,0,0,0,0,0,0,0,0,0,0,0,0,0,0,0,0,0,0,0,0,0,0,0,0,0,0,
0,0,0,0,0,0,0,0,0,0,0,0,0,0,0,0,0,0,0,0,0,0,0,0,0,0,0,0,0,0,0,0,0,0,0,0,0,0,0,0,0,0,0,0,0,0,0,0,0,0,0,0,0,0,0,0,0,0,0,0,0,0,0,0,
0,0,0,0,0,0,0,0,0,0,0,0,0,0,0,0,0,0,0,0,0,0,0,0,0,0,0,0,0,0,0,0,0,0,0,0,0,0,0,0,0,0,0,0,0,0,0,0,0,0,0,0,0,0,0,0,0,0,0,0,0,0,0,0,
0,0,0,0,0,0,0,0,0,0,0,0,0,0,0,0,0,0,0,0,0,0,0,0,0,0,0,0,0,0,0,0,0,0,0,0,0,0,0,0,0,0,0,0,0,0,0,0,0,0,0,0,0,0,0,0,0,0,0,0,0,0,0,0,
0,0,0,0,0,0,0,0,0,0,0,0,0,0,0,0,0,0,0,0,0,0,0,0,0,0,0,0,0,0,0,0,0,0,0,0,0,0,0,0,0,0,0,0,0,0,0,0,0,0,0,0,0,0,0,0,0,0,0,0,0,0,0,0,
0,0,0,0,0,0,0,0,0,0,0,0,0,0,0,94,95,96,93,0,0,0,0,0,0,0,0,0,0,0,0,0,0,0,0,0,0,0,0,0,0,0,0,0,0,0,0,0,0,0,0,0,0,0,0,0,0,0,0,0,0,0,0,0,
0,0,0,0,0,0,0,0,0,0,0,0,0,0,0,113,111,112,114,0,0,0,0,0,0,0,0,0,0,0,0,0,0,0,0,0,0,0,0,0,0,0,0,0,0,0,0,0,0,0,0,0,0,0,0,0,0,0,0,0,0,0,0,0,
0,0,0,0,0,0,0,0,0,0,0,0,0,0,0,107,103,104,108,0,0,0,0,0,0,0,0,0,0,0,0,0,0,0,0,0,0,0,0,0,0,0,0,0,0,0,0,0,0,0,0,0,0,0,0,0,0,0,0,0,0,0,0,0,
0,0,0,0,0,0,0,0,0,0,0,0,0,0,0,0,0,0,0,0,0,0,0,94,106,0,0,0,0,0,0,0,0,0,0,0,0,0,0,0,0,0,0,0,0,0,0,0,0,0,0,0,0,0,0,0,0,0,0,0,0,0,0,0,
0,0,0,0,0,0,0,0,0,0,0,0,0,0,0,0,0,0,0,0,0,0,0,113,112,92,106,0,0,0,0,0,0,0,0,0,0,0,0,0,0,0,0,0,0,0,0,0,0,0,0,0,0,0,0,0,0,0,0,0,0,0,0,0,
0,0,0,0,0,0,0,0,0,0,0,0,0,0,0,0,0,0,0,0,0,0,0,107,118,103,116,0,0,0,0,0,0,0,0,0,0,0,0,0,0,0,0,0,0,0,0,0,0,0,0,0,0,0,0,0,0,0,0,0,0,0,0,0,
0,0,0,0,0,0,0,0,0,0,0,0,0,0,0,0,0,0,0,0,0,0,0,0,0,109,110,0,0,0,0,0,0,0,0,0,0,0,0,0,0,0,0,0,0,0,0,0,0,0,0,0,0,0,0,0,0,0,0,0,0,0,0,0,
0,0,0,0,0,0,0,0,0,0,0,0,0,0,0,0,0,0,0,0,0,0,0,0,0,0,0,0,0,0,0,0,0,0,0,0,0,0,0,0,0,0,0,0,0,0,0,0,0,0,0,0,0,0,0,0,0,94,93,0,0,0,0,0,
0,0,0,0,0,0,0,0,0,0,0,0,0,0,0,0,0,0,0,0,0,0,0,0,0,0,0,0,0,0,0,0,0,0,0,0,0,0,0,0,0,0,0,0,0,0,0,0,0,0,0,0,0,0,0,0,0,113,114,0,0,0,0,0,
0,0,0,0,0,0,0,0,0,0,0,0,0,0,0,0,0,0,0,0,0,0,0,0,0,0,0,0,0,0,0,0,0,0,0,0,0,0,0,0,0,0,0,0,0,0,0,0,0,0,0,0,0,0,0,105,102,112,116,0,0,0,0,0,
0,0,0,0,0,0,0,0,0,0,0,0,0,0,0,0,0,0,0,0,0,0,0,0,0,0,0,0,0,0,0,0,0,0,0,0,0,0,0,0,0,0,0,0,0,0,0,0,0,0,0,0,0,105,100,112,97,104,110,0,0,0,0,0,
0,0,0,0,0,0,0,0,0,0,0,0,0,0,0,0,0,0,0,0,0,0,0,0,0,0,0,0,0,0,0,0,0,0,0,0,0,0,0,0,0,0,0,0,0,0,0,0,0,0,0,0,0,115,111,116,0,0,0,0,0,0,0,0,
0,0,0,0,0,0,0,0,0,0,0,0,0,0,0,0,0,0,0,0,0,0,0,0,0,0,0,0,0,0,0,0,0,0,0,0,0,0,0,0,0,0,0,0,0,0,0,0,0,0,0,0,0,0,107,110,0,0,0,0,0,0,0,0,
0,0,0,0,0,0,0,0,0,0,0,0,0,0,0,0,0,0,0,0,0,0,0,0,0,0,0,0,0,0,0,0,0,0,0,0,0,0,0,0,0,0,0,0,0,0,0,0,0,0,0,0,0,0,0,0,0,0,0,0,0,0,0,0,
0,0,0,0,0,0,0,0,0,0,0,0,0,0,0,0,0,0,0,0,0,0,0,0,0,0,0,0,0,0,0,0,0,0,0,0,0,0,0,0,0,0,0,0,0,0,0,0,0,0,0,0,0,0,0,0,0,0,0,0,0,0,0,0,
0,0,0,0,0,0,0,0,0,0,0,0,0,0,0,0,0,0,0,0,0,0,0,0,94,106,105,100,92,93,0,0,0,0,0,0,0,0,0,0,0,0,0,0,0,0,0,0,0,0,0,0,0,0,0,0,0,0,0,0,0,0,0,0,
0,0,0,0,0,0,0,0,0,0,0,0,0,0,0,0,0,0,0,105,106,0,0,0,113,112,112,104,118,110,0,0,0,0,0,0,0,0,105,100,92,100,92,106,0,0,0,0,0,0,0,0,0,0,0,0,0,0,0,0,0,0,0,0,
0,0,0,0,0,0,0,0,0,0,0,0,0,0,0,0,0,105,100,101,112,92,106,0,107,103,116,0,0,0,0,0,0,0,0,0,0,0,107,103,112,112,104,108,0,0,0,0,0,0,0,0,0,0,0,0,0,0,0,0,0,0,0,0,
0,0,0,0,0,0,0,0,0,0,0,0,0,0,0,0,0,115,120,111,122,112,90,0,0,109,110,0,0,0,0,0,0,0,0,0,0,0,0,0,115,116,0,0,0,0,0,0,0,0,0,0,0,0,0,0,0,0,0,0,0,0,0,0,
0,0,0,0,0,0,0,0,0,0,0,0,0,0,0,0,0,0,0,115,112,112,104,0,0,0,0,0,0,0,0,0,0,0,0,0,0,0,0,0,0,0,0,0,0,0,0,0,0,0,0,0,0,0,0,0,0,0,0,0,0,0,0,0,
0,0,0,0,0,0,0,0,0,0,0,0,0,0,0,0,0,0,0,0,115,104,0,0,0,0,0,0,0,0,0,0,0,0,0,0,0,0,0,0,0,0,0,0,0,0,0,0,0,0,0,0,0,0,0,0,0,0,0,0,0,0,0,0,
0,0,0,0,0,0,0,0,0,0,0,0,0,0,0,0,0,0,0,0,0,0,0,0,0,0,0,0,0,0,0,0,0,0,0,0,0,0,0,0,0,0,0,0,0,0,0,0,0,0,0,0,0,0,0,0,0,0,0,0,0,0,0,0,
0,0,0,0,0,0,0,0,0,0,0,0,0,0,0,0,0,0,0,0,0,0,0,0,0,0,0,0,0,0,0,0,0,0,0,0,0,0,0,0,0,0,0,0,0,0,0,0,0,0,0,0,0,0,0,0,0,0,0,0,0,0,0,0,
0,0,0,0,0,0,0,0,0,0,0,0,0,0,0,0,0,0,0,0,0,0,0,0,0,0,0,0,0,0,0,0,0,0,0,0,0,0,0,0,0,0,0,0,0,0,0,0,0,0,0,0,0,0,0,0,0,0,0,0,0,0,0,0
</data>
 </layer>
 <layer id="4" name="04 树林 · 林地" width="64" height="48">
  <data encoding="csv">
0,0,0,0,0,0,0,0,0,0,0,0,0,0,0,0,0,0,0,0,0,0,0,0,0,0,0,0,0,0,0,0,0,0,0,0,0,0,0,0,0,0,0,0,0,0,0,0,0,0,0,0,0,0,0,0,0,0,0,0,0,0,0,0,
0,0,0,0,0,0,0,0,0,0,0,0,0,0,0,0,0,0,0,0,0,0,0,0,0,0,0,0,0,0,0,0,0,0,0,0,0,0,0,0,0,0,0,0,0,0,0,0,0,0,0,0,0,0,0,0,0,0,0,0,0,0,0,0,
0,0,0,0,0,0,0,0,0,0,0,0,0,0,0,0,0,0,0,0,0,0,0,0,0,0,0,0,0,0,0,0,0,0,0,0,0,0,0,0,0,0,0,0,0,0,0,0,0,0,0,0,0,0,0,0,0,0,0,0,0,0,0,0,
0,0,0,0,0,0,0,0,0,0,0,0,0,0,0,0,0,0,0,0,0,0,0,0,0,0,0,0,0,0,0,0,0,0,0,0,0,0,0,0,0,0,0,0,0,0,0,0,0,0,0,0,0,0,0,0,0,0,0,0,0,0,0,0,
0,0,0,0,0,0,0,0,0,0,0,0,0,0,0,0,0,0,0,0,0,0,0,0,0,0,0,0,0,0,0,0,0,0,0,0,0,0,0,0,0,0,0,0,0,0,0,0,0,0,0,0,0,0,0,0,0,0,0,0,0,0,0,0,
0,0,0,0,0,0,0,0,0,0,0,0,0,0,0,0,0,0,0,0,0,0,0,0,0,0,0,0,0,0,0,0,0,0,0,0,0,0,0,0,0,0,0,0,0,0,0,0,0,0,0,0,0,0,0,0,0,0,0,0,0,0,0,0,
0,0,0,0,0,0,0,0,0,0,0,0,0,0,0,0,0,0,0,0,0,0,0,0,0,0,0,0,0,0,0,0,0,0,0,0,0,57,58,0,0,0,0,0,0,0,0,0,0,0,0,0,0,0,0,0,0,0,0,0,0,0,0,0,
0,0,0,0,0,0,0,0,0,0,0,0,0,0,0,0,0,0,0,0,0,0,0,0,0,0,0,0,0,0,0,0,0,0,0,0,0,61,62,0,0,0,0,0,0,0,0,0,0,0,0,0,0,0,0,0,0,0,0,0,0,0,0,0,
0,0,0,0,0,0,0,0,0,0,0,0,0,0,0,0,0,0,0,63,64,0,0,63,64,0,0,0,0,0,0,0,0,0,0,0,0,63,64,0,0,0,0,0,0,0,0,0,0,0,0,0,0,0,0,0,0,0,0,0,0,0,0,0,
0,0,0,0,0,0,0,0,0,0,0,0,0,0,0,0,0,0,0,65,66,0,0,65,66,0,0,0,0,0,0,0,0,0,0,0,0,65,66,0,0,0,0,0,0,0,0,0,0,0,0,0,0,0,0,0,0,0,0,0,0,0,0,0,
0,0,0,0,0,57,58,63,64,57,58,0,0,0,0,0,0,0,0,0,0,0,0,0,0,0,0,0,0,0,0,0,0,0,0,0,0,63,64,0,0,63,64,0,0,0,0,0,0,0,0,0,0,0,0,0,0,0,0,0,0,0,0,0,
0,0,0,0,0,61,62,65,66,61,62,0,0,0,0,0,0,0,0,0,0,0,0,0,0,0,0,0,0,0,0,0,0,0,0,0,0,65,66,0,0,65,66,0,0,0,0,0,0,0,0,0,0,0,0,0,0,0,0,0,0,0,0,0,
0,0,0,57,58,57,58,63,64,0,0,0,0,0,0,0,0,0,0,0,0,0,0,0,0,0,0,0,0,0,0,0,0,0,0,0,0,0,0,0,0,0,0,0,0,0,0,0,0,0,0,0,0,0,0,0,0,0,0,0,0,0,0,0,
0,0,0,61,62,61,62,65,66,0,0,0,0,0,0,0,0,0,0,0,0,0,0,0,0,0,0,0,0,0,0,0,0,0,0,0,0,0,0,0,0,0,0,0,0,0,0,0,0,0,0,63,64,0,0,63,64,0,0,0,0,0,0,0,
0,0,0,0,0,57,58,0,0,0,0,0,0,0,0,0,0,0,0,0,0,0,0,0,0,0,0,0,0,0,0,0,0,0,0,0,0,0,0,0,0,0,0,0,0,0,0,0,0,0,0,65,66,0,0,65,66,0,0,0,0,0,0,0,
0,0,0,0,0,61,62,0,0,0,0,0,0,0,0,0,0,0,0,57,58,63,64,57,58,0,0,63,64,0,0,0,0,0,0,0,0,0,0,0,0,0,0,0,0,0,0,0,0,0,0,57,58,57,58,63,64,57,58,0,0,0,0,0,
0,0,0,0,0,0,0,0,0,0,0,0,0,0,0,0,0,0,0,61,62,65,66,61,62,0,0,65,66,0,0,0,0,0,0,0,0,0,0,0,0,0,0,0,0,0,0,0,0,0,0,61,62,61,62,65,66,61,62,0,0,0,0,0,
0,0,0,0,0,0,0,0,0,0,0,0,0,0,0,0,0,0,0,0,0,57,58,63,64,63,64,0,0,0,0,0,0,0,0,0,0,0,0,0,0,0,0,0,0,0,0,0,0,0,0,63,64,57,58,57,58,63,64,0,0,0,0,0,
0,0,0,0,0,0,0,0,0,0,0,0,0,0,0,0,0,0,0,0,0,61,62,65,66,65,66,0,0,0,0,0,0,0,0,0,0,0,0,0,0,0,0,0,0,0,0,0,0,0,0,65,66,61,62,61,62,65,66,0,0,0,0,0,
0,0,0,0,0,0,0,0,0,0,0,0,0,0,0,0,0,0,0,0,0,57,58,63,64,63,64,0,0,0,0,0,0,0,0,0,0,0,0,0,0,0,0,0,0,0,0,0,0,57,58,57,58,57,58,63,64,0,0,0,0,0,0,0,
0,0,0,0,0,0,0,0,0,0,0,0,0,0,0,0,0,0,0,0,0,61,62,65,66,65,66,0,0,0,0,0,0,0,0,0,0,0,0,0,0,0,0,0,0,0,0,0,0,61,62,61,62,61,62,65,66,0,0,0,0,0,0,0,
0,0,0,0,0,0,0,0,0,0,0,0,0,0,0,0,0,0,0,0,0,63,64,57,58,57,58,0,0,0,0,0,0,0,0,0,0,0,0,0,0,0,0,0,0,0,0,0,0,0,0,57,58,57,58,63,64,0,0,0,0,0,0,0,
0,0,0,0,0,0,0,0,0,0,0,0,0,0,0,0,0,0,0,0,0,65,66,61,62,61,62,0,0,0,0,0,0,0,0,0,0,0,0,0,0,0,0,0,0,0,0,0,0,0,0,61,62,61,62,65,66,0,0,0,0,0,0,0,
0,0,0,0,0,0,0,0,0,0,0,0,0,0,0,0,0,0,0,0,0,0,0,0,0,0,0,0,0,0,0,0,0,0,0,0,57,58,0,0,0,0,0,0,0,0,0,0,0,0,0,0,0,0,0,0,0,0,0,0,0,0,0,0,
0,0,0,0,57,58,0,0,0,0,0,0,0,0,0,0,0,0,0,0,0,0,0,0,0,0,0,0,0,0,0,0,0,0,0,0,61,62,0,0,0,0,0,0,0,0,0,0,0,0,0,0,0,0,0,0,0,0,0,0,0,0,0,0,
0,0,0,0,61,62,0,0,0,0,0,0,0,0,0,0,0,0,0,0,0,0,0,0,0,0,0,0,0,0,0,0,0,0,57,58,63,64,63,64,0,0,0,0,0,0,0,0,0,0,0,0,0,0,0,0,0,0,0,0,0,0,0,0,
0,0,0,0,0,0,0,0,0,0,63,64,0,0,0,0,0,0,0,0,0,0,0,0,0,0,0,0,0,0,0,0,0,0,61,62,65,66,65,66,0,0,0,0,0,0,0,0,0,0,0,0,0,0,0,0,0,0,0,0,0,0,0,0,
0,0,0,0,0,0,0,0,0,0,65,66,0,0,0,0,0,63,64,57,58,57,58,0,0,0,0,0,0,0,0,0,0,0,0,0,63,64,57,58,0,0,0,0,0,0,0,0,0,0,0,0,0,0,0,0,0,0,0,0,0,0,0,0,
0,0,0,0,0,0,0,0,0,0,0,0,0,0,0,0,0,65,66,61,62,61,62,0,0,0,0,0,0,0,0,0,0,0,0,0,65,66,61,62,0,0,0,0,0,0,0,0,0,0,0,0,0,0,0,0,0,0,0,0,0,0,0,0,
0,0,0,0,0,0,0,0,0,0,0,0,0,0,0,57,58,63,64,63,64,63,64,0,0,0,0,0,0,0,0,0,0,0,0,0,57,58,63,64,63,64,0,0,0,0,0,0,0,0,0,0,0,0,0,0,0,0,0,0,0,0,0,0,
0,0,0,0,0,0,0,0,0,0,0,0,0,0,0,61,62,65,66,65,66,65,66,0,0,0,0,0,0,0,0,0,0,0,0,0,61,62,65,66,65,66,0,0,0,0,0,0,0,0,0,0,0,0,0,0,0,0,0,0,0,0,0,0,
0,0,0,0,0,0,0,0,0,0,0,0,0,0,0,63,64,0,0,0,0,0,0,0,0,0,0,0,0,0,0,0,0,0,0,0,57,58,0,0,57,58,0,0,0,0,0,0,0,0,0,0,0,0,0,0,0,0,0,0,0,0,0,0,
0,0,0,0,0,0,0,0,0,0,0,0,0,0,0,65,66,0,0,0,0,0,0,0,0,0,0,0,0,0,0,0,0,0,0,0,61,62,0,0,61,62,0,0,0,0,0,0,0,0,0,0,0,0,0,0,0,0,0,0,0,0,0,0,
0,0,0,0,0,57,58,0,0,0,0,0,0,0,0,0,0,0,0,0,0,0,0,0,0,0,0,0,0,0,0,0,0,0,0,0,0,0,0,57,58,63,64,57,58,0,0,0,0,0,0,0,0,0,0,0,0,0,0,0,0,0,0,0,
0,0,0,0,0,61,62,0,0,0,0,0,0,0,0,0,0,0,0,0,0,0,0,0,0,0,0,0,0,0,0,0,0,0,0,0,0,0,0,61,62,65,66,61,62,0,0,0,0,0,0,0,0,0,0,0,0,0,0,0,0,0,0,0,
0,0,0,0,0,57,58,0,0,0,0,0,0,0,0,0,0,0,0,0,0,0,0,0,0,0,0,0,0,0,0,0,0,0,0,0,0,0,0,0,0,0,0,0,0,0,0,0,0,0,0,0,0,0,0,0,0,0,0,0,0,0,0,0,
0,0,0,0,0,61,62,0,0,0,0,0,0,0,0,0,0,0,0,0,0,0,0,0,0,0,0,0,0,0,0,0,0,0,0,0,0,0,0,0,0,0,0,0,0,0,0,0,0,0,0,0,63,64,0,0,0,0,0,0,0,0,0,0,
0,0,0,0,0,57,58,63,64,57,58,63,64,63,64,63,64,63,64,0,0,0,0,0,0,0,0,0,0,0,0,0,0,0,0,0,0,0,0,0,0,0,0,0,0,0,0,0,0,0,0,0,65,66,0,0,0,0,0,0,0,0,0,0,
0,0,0,0,0,61,62,65,66,61,62,65,66,65,66,65,66,65,66,0,0,0,0,0,0,0,0,0,0,0,0,0,0,0,0,0,0,0,0,0,0,0,0,0,0,0,0,0,0,0,0,0,0,0,63,64,57,58,0,0,0,0,0,0,
0,0,0,0,0,0,0,63,64,63,64,57,58,57,58,0,0,63,64,0,0,0,0,0,0,0,0,0,0,0,0,0,0,0,0,0,0,0,0,0,0,0,0,0,0,0,0,0,0,0,0,0,0,0,65,66,61,62,0,0,0,0,0,0,
0,0,0,0,0,0,0,65,66,65,66,61,62,61,62,0,0,65,66,0,0,0,0,0,0,0,0,0,0,0,0,0,0,0,0,0,0,0,0,0,0,0,0,0,0,0,0,0,63,64,63,64,63,64,63,64,57,58,0,0,0,0,0,0,
0,0,0,0,0,0,0,0,0,57,58,63,64,63,64,57,58,0,0,0,0,0,0,0,0,0,0,0,0,0,0,0,0,0,0,0,0,0,0,0,0,0,0,0,0,0,0,0,65,66,65,66,65,66,65,66,61,62,0,0,0,0,0,0,
0,0,0,0,0,0,0,0,0,61,62,65,66,65,66,61,62,0,0,0,0,0,0,0,0,0,0,0,0,0,0,0,0,0,0,0,0,0,0,0,0,0,0,0,0,0,0,0,0,0,63,64,57,58,0,0,0,0,0,0,0,0,0,0,
0,0,0,0,0,0,0,0,0,0,0,0,0,0,0,57,58,57,58,0,0,0,0,0,0,0,0,0,0,0,0,0,0,0,0,0,0,0,0,0,0,0,0,0,0,0,0,0,0,0,65,66,61,62,0,0,0,0,0,0,0,0,0,0,
0,0,0,0,0,0,0,0,0,0,0,0,0,0,0,61,62,61,62,0,0,0,0,0,0,0,0,0,0,0,0,0,0,0,0,0,0,0,0,0,0,0,0,0,0,0,0,0,0,0,0,0,0,0,0,0,0,0,0,0,0,0,0,0,
0,0,0,0,0,0,0,0,0,0,0,0,0,0,0,0,0,0,0,0,0,0,0,0,0,0,0,0,0,0,0,0,0,0,0,0,0,0,0,0,0,0,0,0,0,0,0,0,0,0,0,0,0,0,0,0,0,0,0,0,0,0,0,0,
0,0,0,0,0,0,0,0,0,0,0,0,0,0,0,0,0,0,0,0,0,0,0,0,0,0,0,0,0,0,0,0,0,0,0,0,0,0,0,0,0,0,0,0,0,0,0,0,0,0,0,0,0,0,0,0,0,0,0,0,0,0,0,0,
0,0,0,0,0,0,0,0,0,0,0,0,0,0,0,0,0,0,0,0,0,0,0,0,0,0,0,0,0,0,0,0,0,0,0,0,0,0,0,0,0,0,0,0,0,0,0,0,0,0,0,0,0,0,0,0,0,0,0,0,0,0,0,0
</data>
 </layer>
 <layer id="5" name="05 建筑 · 城池与补给" width="64" height="48">
  <data encoding="csv">
0,0,0,0,0,0,0,0,0,0,0,0,0,0,0,0,0,0,0,0,0,0,0,0,0,0,0,0,0,0,0,0,0,0,0,0,0,0,0,0,0,0,0,0,0,0,0,0,0,0,0,0,0,0,0,0,0,0,0,0,0,0,0,0,
0,0,0,0,0,0,0,0,0,0,0,0,0,0,0,0,0,0,0,0,0,0,0,0,0,0,0,0,0,0,0,0,0,0,0,0,0,0,0,0,0,0,0,0,0,0,0,0,0,0,0,0,0,0,0,0,0,0,0,0,0,0,0,0,
0,0,0,0,0,0,0,0,0,0,0,0,0,0,0,0,0,0,0,0,0,0,0,0,0,0,0,0,0,0,0,0,0,0,0,0,0,0,0,0,0,0,0,0,0,0,0,0,0,0,0,0,0,0,0,0,0,0,0,0,0,0,0,0,
0,0,0,0,0,0,0,0,0,0,0,0,0,0,0,0,0,0,0,0,0,0,0,0,0,0,0,0,0,0,0,0,0,0,0,0,0,0,0,0,0,0,0,0,0,0,0,0,0,0,0,0,0,0,0,0,0,0,0,0,0,0,0,0,
0,0,0,0,0,0,0,0,0,0,0,0,0,0,0,0,0,0,0,0,0,0,0,0,0,0,0,0,0,0,0,0,0,0,0,0,0,0,0,0,0,0,0,0,0,0,0,0,0,0,0,0,0,0,0,0,0,0,0,0,0,0,0,0,
0,0,0,0,0,0,0,0,0,0,0,0,0,0,0,0,0,0,0,0,0,0,0,0,0,0,0,0,0,0,0,0,0,0,0,0,0,0,0,0,0,0,0,0,0,0,0,0,0,0,0,0,0,0,0,0,0,0,0,0,0,0,0,0,
0,0,0,0,0,0,0,0,0,0,0,0,0,0,0,0,0,0,0,0,0,0,0,0,0,0,0,0,0,0,0,0,0,0,0,0,0,0,0,0,0,0,0,0,0,0,0,0,0,0,0,0,0,0,0,0,0,0,0,0,0,0,0,0,
0,0,0,0,0,0,0,0,0,0,0,0,0,0,0,0,0,0,0,0,0,0,0,0,0,0,0,0,0,0,0,0,0,0,0,0,0,0,0,0,0,0,0,0,0,0,0,0,0,0,0,0,0,0,0,0,0,0,0,0,0,0,0,0,
0,0,0,0,0,0,0,0,0,0,0,0,0,0,0,0,0,0,0,0,0,0,0,0,0,0,0,0,0,0,0,0,0,0,0,0,0,0,0,0,0,0,0,0,0,0,0,0,0,0,0,0,0,0,0,0,0,0,0,0,0,0,0,0,
0,0,0,0,0,0,0,0,0,0,0,0,0,0,0,79,80,0,0,0,0,0,0,0,0,0,0,0,0,0,0,0,0,0,0,0,0,0,0,0,0,0,0,0,0,0,0,0,0,0,0,0,0,0,0,0,0,0,0,0,0,0,0,0,
0,0,0,0,0,0,0,0,0,0,0,0,0,0,0,81,82,0,0,0,0,0,0,0,0,0,0,0,0,0,0,0,0,0,0,0,0,0,0,0,0,0,0,0,0,0,79,80,1,0,0,0,0,0,0,0,0,0,0,0,0,0,0,0,
0,0,0,0,0,0,0,0,0,0,0,0,0,0,0,77,78,0,0,0,0,0,0,0,0,0,0,0,0,0,0,0,0,0,0,0,0,0,0,0,0,0,0,0,0,0,81,82,84,0,0,0,0,0,0,0,0,0,0,0,0,0,0,0,
0,0,0,0,0,0,0,0,0,0,0,0,0,0,0,0,0,0,0,0,0,0,0,0,0,0,0,0,0,0,0,0,0,0,0,0,0,0,0,0,0,0,0,0,0,0,85,86,78,0,0,0,0,0,0,0,0,0,0,0,0,0,0,0,
0,0,0,0,0,0,0,0,0,0,0,0,0,0,0,0,0,0,0,0,0,0,0,0,0,0,0,0,0,0,0,0,0,0,0,0,0,0,0,0,0,0,0,0,0,0,87,88,1,0,0,0,0,0,0,0,0,0,0,0,0,0,0,0,
0,0,0,0,0,0,0,0,0,0,0,0,0,0,0,0,0,0,0,0,0,0,0,0,0,0,0,0,0,0,0,0,0,0,0,0,0,0,0,0,0,0,0,0,0,0,0,0,0,0,0,0,0,0,0,0,0,0,0,0,0,0,0,0,
0,0,0,0,0,0,0,0,0,0,0,0,0,0,0,0,0,0,0,0,0,0,0,0,0,0,0,0,0,0,0,0,0,0,0,0,0,0,0,0,0,0,0,0,0,0,0,0,0,0,0,0,0,0,0,0,0,0,0,0,0,0,0,0,
0,0,0,0,0,0,0,0,0,0,0,0,0,0,0,0,0,0,0,0,0,0,0,0,0,0,0,0,0,0,0,0,0,0,0,0,0,0,0,72,0,0,0,0,0,0,0,0,0,0,0,0,0,0,0,0,0,0,0,0,0,0,0,0,
0,0,0,0,0,0,0,0,0,0,0,0,0,0,0,0,0,0,0,0,0,0,0,0,0,0,0,0,0,0,0,0,0,0,0,0,0,0,0,0,0,0,0,0,0,0,0,0,0,0,0,0,0,0,0,0,0,0,0,0,0,0,0,0,
0,0,0,0,0,0,0,0,0,0,0,0,0,0,0,0,0,0,0,0,0,0,0,0,0,0,0,0,0,0,0,0,0,0,0,0,0,0,0,0,0,0,0,0,0,0,0,0,0,0,0,0,0,0,0,0,0,0,0,0,0,0,0,0,
0,0,0,0,0,0,0,0,0,0,0,0,0,0,0,0,0,0,0,0,0,0,0,0,0,0,0,0,0,0,0,0,0,0,0,0,0,0,0,0,0,0,0,0,0,0,0,0,0,0,0,0,0,0,0,0,0,0,0,0,0,0,0,0,
0,0,0,0,0,0,0,0,0,0,0,0,0,0,0,0,0,0,0,0,0,0,0,0,0,0,0,0,0,0,0,0,0,0,0,0,0,0,0,0,0,0,0,0,0,0,0,0,0,0,0,0,0,0,0,0,0,0,0,0,0,0,0,0,
0,0,0,0,0,0,0,0,0,0,0,0,0,0,0,0,0,0,0,0,0,0,0,0,0,0,0,0,0,0,0,0,0,0,0,0,0,0,0,0,0,0,0,0,0,0,0,0,0,0,0,0,0,0,0,0,0,0,0,0,0,0,0,0,
0,0,0,0,0,0,0,0,0,0,0,0,0,0,0,0,0,0,0,0,0,0,0,0,0,0,0,0,0,0,0,0,0,0,0,0,0,0,0,0,0,0,0,0,0,0,0,0,0,0,0,0,0,0,0,0,0,0,0,0,0,0,0,0,
0,0,0,0,0,0,0,0,0,0,0,0,0,0,0,0,0,0,0,0,0,0,0,0,0,0,0,0,0,0,0,0,0,0,0,0,0,0,0,0,0,0,0,0,0,0,0,0,0,0,0,0,0,0,0,0,0,0,0,0,0,0,0,0,
0,0,0,0,0,0,0,0,0,0,0,0,0,0,0,0,0,0,0,0,0,0,0,0,0,0,0,0,0,0,0,0,0,0,0,0,0,0,0,0,0,0,0,0,0,0,0,0,0,0,0,0,0,0,0,0,0,0,0,0,0,0,0,0,
0,0,0,0,0,0,0,0,0,0,0,0,0,0,0,0,0,0,0,0,0,72,0,0,0,0,0,0,0,0,0,0,0,0,0,0,0,0,0,0,0,0,0,0,0,0,0,0,0,0,0,0,0,0,0,0,0,0,0,0,0,0,0,0,
0,0,0,0,0,0,0,0,0,0,0,0,0,0,0,0,0,0,0,0,0,0,0,0,0,0,0,0,0,0,0,0,0,0,0,0,0,0,0,0,0,0,0,0,0,0,0,0,0,0,0,0,0,0,0,0,0,0,0,0,0,0,0,0,
0,0,0,0,0,0,0,0,0,0,0,0,0,0,0,0,0,0,0,0,0,0,0,0,0,0,0,0,0,0,0,0,0,0,0,0,0,0,0,0,0,0,0,0,0,0,0,0,0,0,0,0,0,0,0,0,0,0,0,0,0,0,0,0,
0,0,0,0,0,0,0,0,0,0,0,0,0,0,0,0,0,0,0,0,0,0,0,0,0,0,0,0,0,0,0,0,0,0,0,0,0,0,0,0,0,0,0,0,0,0,0,0,0,0,0,0,0,0,0,0,0,0,0,0,0,0,0,0,
0,0,0,0,0,0,0,0,0,0,0,0,0,0,0,0,0,0,0,0,0,0,0,0,0,0,0,0,0,0,0,0,0,0,0,0,0,0,0,0,0,0,0,0,0,0,0,0,0,0,0,0,0,0,0,0,0,0,0,0,0,0,0,0,
0,0,0,0,0,0,0,0,0,0,0,0,0,0,0,0,72,0,0,0,0,0,0,0,0,0,0,0,0,0,0,0,0,0,0,0,0,0,0,0,0,0,0,0,0,0,0,0,0,0,0,0,0,0,0,0,0,0,0,0,0,0,0,0,
0,0,0,0,0,0,0,0,0,0,0,0,0,0,0,0,0,0,0,0,0,0,0,0,0,0,0,0,0,0,0,0,0,0,0,0,0,0,0,0,0,0,0,0,0,0,0,0,0,0,0,0,0,0,0,0,0,0,0,0,0,0,0,0,
0,0,0,0,0,0,0,0,0,0,79,80,0,0,0,0,0,0,0,0,0,0,0,0,0,0,0,0,0,0,0,0,0,0,0,0,0,0,0,0,0,0,0,0,0,0,0,0,0,0,0,0,0,0,0,0,0,0,0,0,0,0,0,0,
0,0,0,0,0,0,0,0,0,0,81,82,0,0,0,0,0,0,0,0,0,0,0,0,0,0,0,0,0,0,0,0,0,0,0,0,0,0,0,0,0,0,0,0,0,0,0,0,0,0,0,0,0,0,0,0,0,0,0,0,0,0,0,0,
0,0,0,0,0,0,0,0,0,0,87,88,0,0,0,0,0,0,0,0,0,0,0,0,0,0,0,0,0,0,0,0,0,0,0,0,0,0,0,0,0,0,0,0,0,0,0,0,79,80,0,0,0,0,0,0,0,0,0,0,0,0,0,0,
0,0,0,0,0,0,0,0,0,0,0,0,0,0,0,0,0,0,0,0,0,0,0,0,0,0,0,0,0,0,0,0,0,0,0,0,0,0,0,0,0,0,0,0,0,0,0,0,81,82,0,0,0,0,0,0,0,0,0,0,0,0,0,0,
0,0,0,0,0,0,0,0,0,0,0,0,0,0,0,0,0,0,0,0,0,0,0,0,0,0,0,0,0,0,0,0,0,0,0,0,0,0,0,0,0,0,0,0,0,0,0,0,77,78,0,0,0,0,0,0,0,0,0,0,0,0,0,0,
0,0,0,0,0,0,0,0,0,0,0,0,0,0,0,0,0,0,0,0,0,0,0,0,0,0,0,0,0,0,0,0,0,0,0,0,0,0,0,0,0,0,0,0,0,0,0,0,0,0,0,0,0,0,0,0,0,0,0,0,0,0,0,0,
0,0,0,0,0,0,0,0,0,0,0,0,0,0,0,0,0,0,0,0,0,0,0,0,0,0,0,0,0,0,0,0,0,0,0,0,0,0,0,0,0,0,0,0,0,0,0,0,0,0,0,0,0,0,0,0,0,0,0,0,0,0,0,0,
0,0,0,0,0,0,0,0,0,0,0,0,0,0,0,0,0,0,0,0,0,0,0,0,0,0,0,0,0,0,0,0,0,0,0,0,0,0,0,0,0,0,0,0,0,0,0,0,0,0,0,0,0,0,0,0,0,0,0,0,0,0,0,0,
0,0,0,0,0,0,0,0,0,0,0,0,0,0,0,0,0,0,0,0,0,0,0,0,0,0,0,0,0,0,0,0,0,0,0,0,0,0,0,0,0,0,0,0,0,0,0,0,0,0,0,0,0,0,0,0,0,0,0,0,0,0,0,0,
0,0,0,0,0,0,0,0,0,0,0,0,0,0,0,0,0,0,0,0,0,0,0,0,0,0,0,0,0,0,0,0,0,0,0,0,0,0,0,0,0,0,0,0,0,0,0,0,0,0,0,0,0,0,0,0,0,0,0,0,0,0,0,0,
0,0,0,0,0,0,0,0,0,0,0,0,0,0,0,0,0,0,0,0,0,0,0,0,0,0,0,0,0,0,0,0,0,0,0,0,0,0,0,0,0,0,0,0,0,0,0,0,0,0,0,0,0,0,0,0,0,0,0,0,0,0,0,0,
0,0,0,0,0,0,0,0,0,0,0,0,0,0,0,0,0,0,0,0,0,0,0,0,0,0,0,0,0,0,0,0,0,0,0,0,0,0,0,0,0,0,0,0,0,0,0,0,0,0,0,0,0,0,0,0,0,0,0,0,0,0,0,0,
0,0,0,0,0,0,0,0,0,0,0,0,0,0,0,0,0,0,0,0,0,0,0,0,0,0,0,0,0,0,0,0,0,0,0,0,0,0,0,0,0,0,0,0,0,0,0,0,0,0,0,0,0,0,0,0,0,0,0,0,0,0,0,0,
0,0,0,0,0,0,0,0,0,0,0,0,0,0,0,0,0,0,0,0,0,0,0,0,0,0,0,0,0,0,0,0,0,0,0,0,0,0,0,0,0,0,0,0,0,0,0,0,0,0,0,0,0,0,0,0,0,0,0,0,0,0,0,0,
0,0,0,0,0,0,0,0,0,0,0,0,0,0,0,0,0,0,0,0,0,0,0,0,0,0,0,0,0,0,0,0,0,0,0,0,0,0,0,0,0,0,0,0,0,0,0,0,0,0,0,0,0,0,0,0,0,0,0,0,0,0,0,0,
0,0,0,0,0,0,0,0,0,0,0,0,0,0,0,0,0,0,0,0,0,0,0,0,0,0,0,0,0,0,0,0,0,0,0,0,0,0,0,0,0,0,0,0,0,0,0,0,0,0,0,0,0,0,0,0,0,0,0,0,0,0,0,0
</data>
 </layer>
 <objectgroup id="6" name="06 城池信息 · 可选中编辑" visible="0">
  <object id="1" name="青岚城" type="City" x="160" y="512" width="32" height="48">
   <properties>
    <property name="cityId" type="int" value="0"/>
    <property name="displayName" value="青岚城"/>
    <property name="owner" value="玩家"/>
   </properties>
  </object>
  <object id="4" name="松风堡" type="City" x="240" y="144" width="32" height="48">
   <properties>
    <property name="cityId" type="int" value="1"/>
    <property name="displayName" value="松风堡"/>
    <property name="owner" value="中立"/>
   </properties>
  </object>
  <object id="7" name="双桥关" type="City" x="736" y="160" width="48" height="64">
   <properties>
    <property name="cityId" type="int" value="2"/>
    <property name="displayName" value="双桥关"/>
    <property name="owner" value="守军"/>
   </properties>
  </object>
  <object id="10" name="南泽城" type="City" x="768" y="544" width="32" height="48">
   <properties>
    <property name="cityId" type="int" value="3"/>
    <property name="displayName" value="南泽城"/>
    <property name="owner" value="中立"/>
   </properties>
  </object>
 </objectgroup>
 <objectgroup id="7" name="07 出生点与补给" visible="0">
  <object id="13" name="玩家出发点" type="PlayerSpawn" x="184" y="568">
   <point/>
  </object>
  <object id="14" name="补给点 1" type="Supply" x="344" y="408">
   <point/>
  </object>
  <object id="15" name="补给点 2" type="Supply" x="632" y="264">
   <point/>
  </object>
  <object id="16" name="补给点 3" type="Supply" x="264" y="488">
   <point/>
  </object>
 </objectgroup>
 <objectgroup id="8" name="08 行军路线 · 显示可查看" visible="0">
  <object id="23" name="北桥大道" type="MarchRoute" x="0" y="0">
   <polyline points="264,200 376,216 456,216 584,216 680,248 760,232"/>
  </object>
  <object id="24" name="南桥大道" type="MarchRoute" x="0" y="0">
   <polyline points="184,568 296,552 392,552 552,552 648,616 792,600"/>
  </object>
  <object id="25" name="西岸林道" type="MarchRoute" x="0" y="0">
   <polyline points="184,568 136,472 120,376 152,264 264,200"/>
  </object>
  <object id="26" name="东岸山道" type="MarchRoute" x="0" y="0">
   <polyline points="760,232 696,312 680,392 712,472 792,600"/>
  </object>
  <object id="27" name="湖畔驿道" type="MarchRoute" x="0" y="0">
   <polyline points="152,264 296,312 344,408"/>
  </object>
 </objectgroup>
 <objectgroup id="9" name="09 碰撞区域 · 显示可查看" visible="0">
  <object id="28" name="阻挡 1" type="Collision" x="0" y="0" width="1024" height="16">
   <properties>
    <property name="blocked" type="bool" value="true"/>
   </properties>
  </object>
  <object id="29" name="阻挡 2" type="Collision" x="0" y="16" width="1024" height="16">
   <properties>
    <property name="blocked" type="bool" value="true"/>
   </properties>
  </object>
  <object id="30" name="阻挡 3" type="Collision" x="0" y="32" width="320" height="16">
   <properties>
    <property name="blocked" type="bool" value="true"/>
   </properties>
  </object>
  <object id="31" name="阻挡 4" type="Collision" x="496" y="32" width="80" height="16">
   <properties>
    <property name="blocked" type="bool" value="true"/>
   </properties>
  </object>
  <object id="32" name="阻挡 5" type="Collision" x="768" y="32" width="256" height="16">
   <properties>
    <property name="blocked" type="bool" value="true"/>
   </properties>
  </object>
  <object id="33" name="阻挡 6" type="Collision" x="0" y="48" width="192" height="16">
   <properties>
    <property name="blocked" type="bool" value="true"/>
   </properties>
  </object>
  <object id="34" name="阻挡 7" type="Collision" x="496" y="48" width="80" height="16">
   <properties>
    <property name="blocked" type="bool" value="true"/>
   </properties>
  </object>
  <object id="35" name="阻挡 8" type="Collision" x="832" y="48" width="192" height="16">
   <properties>
    <property name="blocked" type="bool" value="true"/>
   </properties>
  </object>
  <object id="36" name="阻挡 9" type="Collision" x="0" y="64" width="160" height="16">
   <properties>
    <property name="blocked" type="bool" value="true"/>
   </properties>
  </object>
  <object id="37" name="阻挡 10" type="Collision" x="496" y="64" width="80" height="16">
   <properties>
    <property name="blocked" type="bool" value="true"/>
   </properties>
  </object>
  <object id="38" name="阻挡 11" type="Collision" x="688" y="64" width="32" height="16">
   <properties>
    <property name="blocked" type="bool" value="true"/>
   </properties>
  </object>
  <object id="39" name="阻挡 12" type="Collision" x="768" y="64" width="64" height="16">
   <properties>
    <property name="blocked" type="bool" value="true"/>
   </properties>
  </object>
  <object id="40" name="阻挡 13" type="Collision" x="864" y="64" width="160" height="16">
   <properties>
    <property name="blocked" type="bool" value="true"/>
   </properties>
  </object>
  <object id="41" name="阻挡 14" type="Collision" x="0" y="80" width="176" height="16">
   <properties>
    <property name="blocked" type="bool" value="true"/>
   </properties>
  </object>
  <object id="42" name="阻挡 15" type="Collision" x="320" y="80" width="96" height="16">
   <properties>
    <property name="blocked" type="bool" value="true"/>
   </properties>
  </object>
  <object id="43" name="阻挡 16" type="Collision" x="512" y="80" width="64" height="16">
   <properties>
    <property name="blocked" type="bool" value="true"/>
   </properties>
  </object>
  <object id="44" name="阻挡 17" type="Collision" x="688" y="80" width="32" height="16">
   <properties>
    <property name="blocked" type="bool" value="true"/>
   </properties>
  </object>
  <object id="45" name="阻挡 18" type="Collision" x="768" y="80" width="80" height="16">
   <properties>
    <property name="blocked" type="bool" value="true"/>
   </properties>
  </object>
  <object id="46" name="阻挡 19" type="Collision" x="880" y="80" width="144" height="16">
   <properties>
    <property name="blocked" type="bool" value="true"/>
   </properties>
  </object>
  <object id="47" name="阻挡 20" type="Collision" x="0" y="96" width="128" height="16">
   <properties>
    <property name="blocked" type="bool" value="true"/>
   </properties>
  </object>
  <object id="48" name="阻挡 21" type="Collision" x="144" y="96" width="64" height="16">
   <properties>
    <property name="blocked" type="bool" value="true"/>
   </properties>
  </object>
  <object id="49" name="阻挡 22" type="Collision" x="320" y="96" width="96" height="16">
   <properties>
    <property name="blocked" type="bool" value="true"/>
   </properties>
  </object>
  <object id="50" name="阻挡 23" type="Collision" x="512" y="96" width="64" height="16">
   <properties>
    <property name="blocked" type="bool" value="true"/>
   </properties>
  </object>
  <object id="51" name="阻挡 24" type="Collision" x="656" y="96" width="64" height="16">
   <properties>
    <property name="blocked" type="bool" value="true"/>
   </properties>
  </object>
  <object id="52" name="阻挡 25" type="Collision" x="784" y="96" width="80" height="16">
   <properties>
    <property name="blocked" type="bool" value="true"/>
   </properties>
  </object>
  <object id="53" name="阻挡 26" type="Collision" x="896" y="96" width="128" height="16">
   <properties>
    <property name="blocked" type="bool" value="true"/>
   </properties>
  </object>
  <object id="54" name="阻挡 27" type="Collision" x="0" y="112" width="112" height="16">
   <properties>
    <property name="blocked" type="bool" value="true"/>
   </properties>
  </object>
  <object id="55" name="阻挡 28" type="Collision" x="144" y="112" width="64" height="16">
   <properties>
    <property name="blocked" type="bool" value="true"/>
   </properties>
  </object>
  <object id="56" name="阻挡 29" type="Collision" x="320" y="112" width="48" height="16">
   <properties>
    <property name="blocked" type="bool" value="true"/>
   </properties>
  </object>
  <object id="57" name="阻挡 30" type="Collision" x="400" y="112" width="96" height="16">
   <properties>
    <property name="blocked" type="bool" value="true"/>
   </properties>
  </object>
  <object id="58" name="阻挡 31" type="Collision" x="512" y="112" width="64" height="16">
   <properties>
    <property name="blocked" type="bool" value="true"/>
   </properties>
  </object>
  <object id="59" name="阻挡 32" type="Collision" x="624" y="112" width="96" height="16">
   <properties>
    <property name="blocked" type="bool" value="true"/>
   </properties>
  </object>
  <object id="60" name="阻挡 33" type="Collision" x="816" y="112" width="48" height="16">
   <properties>
    <property name="blocked" type="bool" value="true"/>
   </properties>
  </object>
  <object id="61" name="阻挡 34" type="Collision" x="912" y="112" width="112" height="16">
   <properties>
    <property name="blocked" type="bool" value="true"/>
   </properties>
  </object>
  <object id="62" name="阻挡 35" type="Collision" x="0" y="128" width="96" height="16">
   <properties>
    <property name="blocked" type="bool" value="true"/>
   </properties>
  </object>
  <object id="63" name="阻挡 36" type="Collision" x="176" y="128" width="32" height="16">
   <properties>
    <property name="blocked" type="bool" value="true"/>
   </properties>
  </object>
  <object id="64" name="阻挡 37" type="Collision" x="336" y="128" width="32" height="16">
   <properties>
    <property name="blocked" type="bool" value="true"/>
   </properties>
  </object>
  <object id="65" name="阻挡 38" type="Collision" x="400" y="128" width="96" height="16">
   <properties>
    <property name="blocked" type="bool" value="true"/>
   </properties>
  </object>
  <object id="66" name="阻挡 39" type="Collision" x="512" y="128" width="64" height="16">
   <properties>
    <property name="blocked" type="bool" value="true"/>
   </properties>
  </object>
  <object id="67" name="阻挡 40" type="Collision" x="624" y="128" width="48" height="16">
   <properties>
    <property name="blocked" type="bool" value="true"/>
   </properties>
  </object>
  <object id="68" name="阻挡 41" type="Collision" x="928" y="128" width="96" height="16">
   <properties>
    <property name="blocked" type="bool" value="true"/>
   </properties>
  </object>
  <object id="69" name="阻挡 42" type="Collision" x="0" y="144" width="80" height="16">
   <properties>
    <property name="blocked" type="bool" value="true"/>
   </properties>
  </object>
  <object id="70" name="阻挡 43" type="Collision" x="432" y="144" width="32" height="16">
   <properties>
    <property name="blocked" type="bool" value="true"/>
   </properties>
  </object>
  <object id="71" name="阻挡 44" type="Collision" x="496" y="144" width="80" height="16">
   <properties>
    <property name="blocked" type="bool" value="true"/>
   </properties>
  </object>
  <object id="72" name="阻挡 45" type="Collision" x="640" y="144" width="32" height="16">
   <properties>
    <property name="blocked" type="bool" value="true"/>
   </properties>
  </object>
  <object id="73" name="阻挡 46" type="Collision" x="880" y="144" width="32" height="16">
   <properties>
    <property name="blocked" type="bool" value="true"/>
   </properties>
  </object>
  <object id="74" name="阻挡 47" type="Collision" x="944" y="144" width="80" height="16">
   <properties>
    <property name="blocked" type="bool" value="true"/>
   </properties>
  </object>
  <object id="75" name="阻挡 48" type="Collision" x="0" y="160" width="64" height="16">
   <properties>
    <property name="blocked" type="bool" value="true"/>
   </properties>
  </object>
  <object id="76" name="阻挡 49" type="Collision" x="480" y="160" width="80" height="16">
   <properties>
    <property name="blocked" type="bool" value="true"/>
   </properties>
  </object>
  <object id="77" name="阻挡 50" type="Collision" x="864" y="160" width="48" height="16">
   <properties>
    <property name="blocked" type="bool" value="true"/>
   </properties>
  </object>
  <object id="78" name="阻挡 51" type="Collision" x="960" y="160" width="64" height="16">
   <properties>
    <property name="blocked" type="bool" value="true"/>
   </properties>
  </object>
  <object id="79" name="阻挡 52" type="Collision" x="0" y="176" width="64" height="16">
   <properties>
    <property name="blocked" type="bool" value="true"/>
   </properties>
  </object>
  <object id="80" name="阻挡 53" type="Collision" x="480" y="176" width="80" height="16">
   <properties>
    <property name="blocked" type="bool" value="true"/>
   </properties>
  </object>
  <object id="81" name="阻挡 54" type="Collision" x="864" y="176" width="48" height="16">
   <properties>
    <property name="blocked" type="bool" value="true"/>
   </properties>
  </object>
  <object id="82" name="阻挡 55" type="Collision" x="976" y="176" width="48" height="16">
   <properties>
    <property name="blocked" type="bool" value="true"/>
   </properties>
  </object>
  <object id="83" name="阻挡 56" type="Collision" x="0" y="192" width="48" height="16">
   <properties>
    <property name="blocked" type="bool" value="true"/>
   </properties>
  </object>
  <object id="84" name="阻挡 57" type="Collision" x="480" y="192" width="64" height="16">
   <properties>
    <property name="blocked" type="bool" value="true"/>
   </properties>
  </object>
  <object id="85" name="阻挡 58" type="Collision" x="880" y="192" width="32" height="16">
   <properties>
    <property name="blocked" type="bool" value="true"/>
   </properties>
  </object>
  <object id="86" name="阻挡 59" type="Collision" x="976" y="192" width="48" height="16">
   <properties>
    <property name="blocked" type="bool" value="true"/>
   </properties>
  </object>
  <object id="87" name="阻挡 60" type="Collision" x="0" y="208" width="48" height="16">
   <properties>
    <property name="blocked" type="bool" value="true"/>
   </properties>
  </object>
  <object id="88" name="阻挡 61" type="Collision" x="976" y="208" width="48" height="16">
   <properties>
    <property name="blocked" type="bool" value="true"/>
   </properties>
  </object>
  <object id="89" name="阻挡 62" type="Collision" x="0" y="224" width="48" height="16">
   <properties>
    <property name="blocked" type="bool" value="true"/>
   </properties>
  </object>
  <object id="90" name="阻挡 63" type="Collision" x="480" y="224" width="64" height="16">
   <properties>
    <property name="blocked" type="bool" value="true"/>
   </properties>
  </object>
  <object id="91" name="阻挡 64" type="Collision" x="976" y="224" width="48" height="16">
   <properties>
    <property name="blocked" type="bool" value="true"/>
   </properties>
  </object>
  <object id="92" name="阻挡 65" type="Collision" x="0" y="240" width="48" height="16">
   <properties>
    <property name="blocked" type="bool" value="true"/>
   </properties>
  </object>
  <object id="93" name="阻挡 66" type="Collision" x="480" y="240" width="64" height="16">
   <properties>
    <property name="blocked" type="bool" value="true"/>
   </properties>
  </object>
  <object id="94" name="阻挡 67" type="Collision" x="976" y="240" width="48" height="16">
   <properties>
    <property name="blocked" type="bool" value="true"/>
   </properties>
  </object>
  <object id="95" name="阻挡 68" type="Collision" x="0" y="256" width="48" height="16">
   <properties>
    <property name="blocked" type="bool" value="true"/>
   </properties>
  </object>
  <object id="96" name="阻挡 69" type="Collision" x="464" y="256" width="80" height="16">
   <properties>
    <property name="blocked" type="bool" value="true"/>
   </properties>
  </object>
  <object id="97" name="阻挡 70" type="Collision" x="976" y="256" width="48" height="16">
   <properties>
    <property name="blocked" type="bool" value="true"/>
   </properties>
  </object>
  <object id="98" name="阻挡 71" type="Collision" x="0" y="272" width="48" height="16">
   <properties>
    <property name="blocked" type="bool" value="true"/>
   </properties>
  </object>
  <object id="99" name="阻挡 72" type="Collision" x="448" y="272" width="80" height="16">
   <properties>
    <property name="blocked" type="bool" value="true"/>
   </properties>
  </object>
  <object id="100" name="阻挡 73" type="Collision" x="976" y="272" width="48" height="16">
   <properties>
    <property name="blocked" type="bool" value="true"/>
   </properties>
  </object>
  <object id="101" name="阻挡 74" type="Collision" x="0" y="288" width="48" height="16">
   <properties>
    <property name="blocked" type="bool" value="true"/>
   </properties>
  </object>
  <object id="102" name="阻挡 75" type="Collision" x="144" y="288" width="80" height="16">
   <properties>
    <property name="blocked" type="bool" value="true"/>
   </properties>
  </object>
  <object id="103" name="阻挡 76" type="Collision" x="448" y="288" width="80" height="16">
   <properties>
    <property name="blocked" type="bool" value="true"/>
   </properties>
  </object>
  <object id="104" name="阻挡 77" type="Collision" x="976" y="288" width="48" height="16">
   <properties>
    <property name="blocked" type="bool" value="true"/>
   </properties>
  </object>
  <object id="105" name="阻挡 78" type="Collision" x="0" y="304" width="48" height="16">
   <properties>
    <property name="blocked" type="bool" value="true"/>
   </properties>
  </object>
  <object id="106" name="阻挡 79" type="Collision" x="128" y="304" width="112" height="16">
   <properties>
    <property name="blocked" type="bool" value="true"/>
   </properties>
  </object>
  <object id="107" name="阻挡 80" type="Collision" x="448" y="304" width="64" height="16">
   <properties>
    <property name="blocked" type="bool" value="true"/>
   </properties>
  </object>
  <object id="108" name="阻挡 81" type="Collision" x="976" y="304" width="48" height="16">
   <properties>
    <property name="blocked" type="bool" value="true"/>
   </properties>
  </object>
  <object id="109" name="阻挡 82" type="Collision" x="0" y="320" width="48" height="16">
   <properties>
    <property name="blocked" type="bool" value="true"/>
   </properties>
  </object>
  <object id="110" name="阻挡 83" type="Collision" x="112" y="320" width="144" height="16">
   <properties>
    <property name="blocked" type="bool" value="true"/>
   </properties>
  </object>
  <object id="111" name="阻挡 84" type="Collision" x="448" y="320" width="64" height="16">
   <properties>
    <property name="blocked" type="bool" value="true"/>
   </properties>
  </object>
  <object id="112" name="阻挡 85" type="Collision" x="976" y="320" width="48" height="16">
   <properties>
    <property name="blocked" type="bool" value="true"/>
   </properties>
  </object>
  <object id="113" name="阻挡 86" type="Collision" x="0" y="336" width="48" height="16">
   <properties>
    <property name="blocked" type="bool" value="true"/>
   </properties>
  </object>
  <object id="114" name="阻挡 87" type="Collision" x="112" y="336" width="144" height="16">
   <properties>
    <property name="blocked" type="bool" value="true"/>
   </properties>
  </object>
  <object id="115" name="阻挡 88" type="Collision" x="448" y="336" width="64" height="16">
   <properties>
    <property name="blocked" type="bool" value="true"/>
   </properties>
  </object>
  <object id="116" name="阻挡 89" type="Collision" x="992" y="336" width="32" height="16">
   <properties>
    <property name="blocked" type="bool" value="true"/>
   </properties>
  </object>
  <object id="117" name="阻挡 90" type="Collision" x="0" y="352" width="32" height="16">
   <properties>
    <property name="blocked" type="bool" value="true"/>
   </properties>
  </object>
  <object id="118" name="阻挡 91" type="Collision" x="112" y="352" width="144" height="16">
   <properties>
    <property name="blocked" type="bool" value="true"/>
   </properties>
  </object>
  <object id="119" name="阻挡 92" type="Collision" x="448" y="352" width="80" height="16">
   <properties>
    <property name="blocked" type="bool" value="true"/>
   </properties>
  </object>
  <object id="120" name="阻挡 93" type="Collision" x="992" y="352" width="32" height="16">
   <properties>
    <property name="blocked" type="bool" value="true"/>
   </properties>
  </object>
  <object id="121" name="阻挡 94" type="Collision" x="0" y="368" width="48" height="16">
   <properties>
    <property name="blocked" type="bool" value="true"/>
   </properties>
  </object>
  <object id="122" name="阻挡 95" type="Collision" x="128" y="368" width="112" height="16">
   <properties>
    <property name="blocked" type="bool" value="true"/>
   </properties>
  </object>
  <object id="123" name="阻挡 96" type="Collision" x="448" y="368" width="80" height="16">
   <properties>
    <property name="blocked" type="bool" value="true"/>
   </properties>
  </object>
  <object id="124" name="阻挡 97" type="Collision" x="992" y="368" width="32" height="16">
   <properties>
    <property name="blocked" type="bool" value="true"/>
   </properties>
  </object>
  <object id="125" name="阻挡 98" type="Collision" x="0" y="384" width="48" height="16">
   <properties>
    <property name="blocked" type="bool" value="true"/>
   </properties>
  </object>
  <object id="126" name="阻挡 99" type="Collision" x="144" y="384" width="80" height="16">
   <properties>
    <property name="blocked" type="bool" value="true"/>
   </properties>
  </object>
  <object id="127" name="阻挡 100" type="Collision" x="240" y="384" width="64" height="16">
   <properties>
    <property name="blocked" type="bool" value="true"/>
   </properties>
  </object>
  <object id="128" name="阻挡 101" type="Collision" x="448" y="384" width="80" height="16">
   <properties>
    <property name="blocked" type="bool" value="true"/>
   </properties>
  </object>
  <object id="129" name="阻挡 102" type="Collision" x="976" y="384" width="48" height="16">
   <properties>
    <property name="blocked" type="bool" value="true"/>
   </properties>
  </object>
  <object id="130" name="阻挡 103" type="Collision" x="0" y="400" width="48" height="16">
   <properties>
    <property name="blocked" type="bool" value="true"/>
   </properties>
  </object>
  <object id="131" name="阻挡 104" type="Collision" x="240" y="400" width="64" height="16">
   <properties>
    <property name="blocked" type="bool" value="true"/>
   </properties>
  </object>
  <object id="132" name="阻挡 105" type="Collision" x="464" y="400" width="80" height="16">
   <properties>
    <property name="blocked" type="bool" value="true"/>
   </properties>
  </object>
  <object id="133" name="阻挡 106" type="Collision" x="976" y="400" width="48" height="16">
   <properties>
    <property name="blocked" type="bool" value="true"/>
   </properties>
  </object>
  <object id="134" name="阻挡 107" type="Collision" x="0" y="416" width="48" height="16">
   <properties>
    <property name="blocked" type="bool" value="true"/>
   </properties>
  </object>
  <object id="135" name="阻挡 108" type="Collision" x="240" y="416" width="64" height="16">
   <properties>
    <property name="blocked" type="bool" value="true"/>
   </properties>
  </object>
  <object id="136" name="阻挡 109" type="Collision" x="464" y="416" width="80" height="16">
   <properties>
    <property name="blocked" type="bool" value="true"/>
   </properties>
  </object>
  <object id="137" name="阻挡 110" type="Collision" x="976" y="416" width="48" height="16">
   <properties>
    <property name="blocked" type="bool" value="true"/>
   </properties>
  </object>
  <object id="138" name="阻挡 111" type="Collision" x="0" y="432" width="48" height="16">
   <properties>
    <property name="blocked" type="bool" value="true"/>
   </properties>
  </object>
  <object id="139" name="阻挡 112" type="Collision" x="368" y="432" width="32" height="16">
   <properties>
    <property name="blocked" type="bool" value="true"/>
   </properties>
  </object>
  <object id="140" name="阻挡 113" type="Collision" x="480" y="432" width="64" height="16">
   <properties>
    <property name="blocked" type="bool" value="true"/>
   </properties>
  </object>
  <object id="141" name="阻挡 114" type="Collision" x="976" y="432" width="48" height="16">
   <properties>
    <property name="blocked" type="bool" value="true"/>
   </properties>
  </object>
  <object id="142" name="阻挡 115" type="Collision" x="0" y="448" width="48" height="16">
   <properties>
    <property name="blocked" type="bool" value="true"/>
   </properties>
  </object>
  <object id="143" name="阻挡 116" type="Collision" x="368" y="448" width="64" height="16">
   <properties>
    <property name="blocked" type="bool" value="true"/>
   </properties>
  </object>
  <object id="144" name="阻挡 117" type="Collision" x="480" y="448" width="80" height="16">
   <properties>
    <property name="blocked" type="bool" value="true"/>
   </properties>
  </object>
  <object id="145" name="阻挡 118" type="Collision" x="976" y="448" width="48" height="16">
   <properties>
    <property name="blocked" type="bool" value="true"/>
   </properties>
  </object>
  <object id="146" name="阻挡 119" type="Collision" x="0" y="464" width="48" height="16">
   <properties>
    <property name="blocked" type="bool" value="true"/>
   </properties>
  </object>
  <object id="147" name="阻挡 120" type="Collision" x="368" y="464" width="64" height="16">
   <properties>
    <property name="blocked" type="bool" value="true"/>
   </properties>
  </object>
  <object id="148" name="阻挡 121" type="Collision" x="496" y="464" width="64" height="16">
   <properties>
    <property name="blocked" type="bool" value="true"/>
   </properties>
  </object>
  <object id="149" name="阻挡 122" type="Collision" x="976" y="464" width="48" height="16">
   <properties>
    <property name="blocked" type="bool" value="true"/>
   </properties>
  </object>
  <object id="150" name="阻挡 123" type="Collision" x="0" y="480" width="48" height="16">
   <properties>
    <property name="blocked" type="bool" value="true"/>
   </properties>
  </object>
  <object id="151" name="阻挡 124" type="Collision" x="400" y="480" width="32" height="16">
   <properties>
    <property name="blocked" type="bool" value="true"/>
   </properties>
  </object>
  <object id="152" name="阻挡 125" type="Collision" x="480" y="480" width="80" height="16">
   <properties>
    <property name="blocked" type="bool" value="true"/>
   </properties>
  </object>
  <object id="153" name="阻挡 126" type="Collision" x="976" y="480" width="48" height="16">
   <properties>
    <property name="blocked" type="bool" value="true"/>
   </properties>
  </object>
  <object id="154" name="阻挡 127" type="Collision" x="0" y="496" width="48" height="16">
   <properties>
    <property name="blocked" type="bool" value="true"/>
   </properties>
  </object>
  <object id="155" name="阻挡 128" type="Collision" x="464" y="496" width="80" height="16">
   <properties>
    <property name="blocked" type="bool" value="true"/>
   </properties>
  </object>
  <object id="156" name="阻挡 129" type="Collision" x="912" y="496" width="32" height="16">
   <properties>
    <property name="blocked" type="bool" value="true"/>
   </properties>
  </object>
  <object id="157" name="阻挡 130" type="Collision" x="992" y="496" width="32" height="16">
   <properties>
    <property name="blocked" type="bool" value="true"/>
   </properties>
  </object>
  <object id="158" name="阻挡 131" type="Collision" x="0" y="512" width="48" height="16">
   <properties>
    <property name="blocked" type="bool" value="true"/>
   </properties>
  </object>
  <object id="159" name="阻挡 132" type="Collision" x="448" y="512" width="80" height="16">
   <properties>
    <property name="blocked" type="bool" value="true"/>
   </properties>
  </object>
  <object id="160" name="阻挡 133" type="Collision" x="912" y="512" width="32" height="16">
   <properties>
    <property name="blocked" type="bool" value="true"/>
   </properties>
  </object>
  <object id="161" name="阻挡 134" type="Collision" x="992" y="512" width="32" height="16">
   <properties>
    <property name="blocked" type="bool" value="true"/>
   </properties>
  </object>
  <object id="162" name="阻挡 135" type="Collision" x="0" y="528" width="48" height="16">
   <properties>
    <property name="blocked" type="bool" value="true"/>
   </properties>
  </object>
  <object id="163" name="阻挡 136" type="Collision" x="448" y="528" width="64" height="16">
   <properties>
    <property name="blocked" type="bool" value="true"/>
   </properties>
  </object>
  <object id="164" name="阻挡 137" type="Collision" x="880" y="528" width="64" height="16">
   <properties>
    <property name="blocked" type="bool" value="true"/>
   </properties>
  </object>
  <object id="165" name="阻挡 138" type="Collision" x="976" y="528" width="48" height="16">
   <properties>
    <property name="blocked" type="bool" value="true"/>
   </properties>
  </object>
  <object id="166" name="阻挡 139" type="Collision" x="0" y="544" width="48" height="16">
   <properties>
    <property name="blocked" type="bool" value="true"/>
   </properties>
  </object>
  <object id="167" name="阻挡 140" type="Collision" x="848" y="544" width="96" height="16">
   <properties>
    <property name="blocked" type="bool" value="true"/>
   </properties>
  </object>
  <object id="168" name="阻挡 141" type="Collision" x="976" y="544" width="48" height="16">
   <properties>
    <property name="blocked" type="bool" value="true"/>
   </properties>
  </object>
  <object id="169" name="阻挡 142" type="Collision" x="0" y="560" width="64" height="16">
   <properties>
    <property name="blocked" type="bool" value="true"/>
   </properties>
  </object>
  <object id="170" name="阻挡 143" type="Collision" x="448" y="560" width="64" height="16">
   <properties>
    <property name="blocked" type="bool" value="true"/>
   </properties>
  </object>
  <object id="171" name="阻挡 144" type="Collision" x="848" y="560" width="48" height="16">
   <properties>
    <property name="blocked" type="bool" value="true"/>
   </properties>
  </object>
  <object id="172" name="阻挡 145" type="Collision" x="976" y="560" width="48" height="16">
   <properties>
    <property name="blocked" type="bool" value="true"/>
   </properties>
  </object>
  <object id="173" name="阻挡 146" type="Collision" x="0" y="576" width="64" height="16">
   <properties>
    <property name="blocked" type="bool" value="true"/>
   </properties>
  </object>
  <object id="174" name="阻挡 147" type="Collision" x="448" y="576" width="80" height="16">
   <properties>
    <property name="blocked" type="bool" value="true"/>
   </properties>
  </object>
  <object id="175" name="阻挡 148" type="Collision" x="864" y="576" width="32" height="16">
   <properties>
    <property name="blocked" type="bool" value="true"/>
   </properties>
  </object>
  <object id="176" name="阻挡 149" type="Collision" x="960" y="576" width="64" height="16">
   <properties>
    <property name="blocked" type="bool" value="true"/>
   </properties>
  </object>
  <object id="177" name="阻挡 150" type="Collision" x="0" y="592" width="80" height="16">
   <properties>
    <property name="blocked" type="bool" value="true"/>
   </properties>
  </object>
  <object id="178" name="阻挡 151" type="Collision" x="464" y="592" width="80" height="16">
   <properties>
    <property name="blocked" type="bool" value="true"/>
   </properties>
  </object>
  <object id="179" name="阻挡 152" type="Collision" x="960" y="592" width="64" height="16">
   <properties>
    <property name="blocked" type="bool" value="true"/>
   </properties>
  </object>
  <object id="180" name="阻挡 153" type="Collision" x="0" y="608" width="80" height="16">
   <properties>
    <property name="blocked" type="bool" value="true"/>
   </properties>
  </object>
  <object id="181" name="阻挡 154" type="Collision" x="480" y="608" width="80" height="16">
   <properties>
    <property name="blocked" type="bool" value="true"/>
   </properties>
  </object>
  <object id="182" name="阻挡 155" type="Collision" x="944" y="608" width="80" height="16">
   <properties>
    <property name="blocked" type="bool" value="true"/>
   </properties>
  </object>
  <object id="183" name="阻挡 156" type="Collision" x="0" y="624" width="96" height="16">
   <properties>
    <property name="blocked" type="bool" value="true"/>
   </properties>
  </object>
  <object id="184" name="阻挡 157" type="Collision" x="384" y="624" width="176" height="16">
   <properties>
    <property name="blocked" type="bool" value="true"/>
   </properties>
  </object>
  <object id="185" name="阻挡 158" type="Collision" x="944" y="624" width="80" height="16">
   <properties>
    <property name="blocked" type="bool" value="true"/>
   </properties>
  </object>
  <object id="186" name="阻挡 159" type="Collision" x="0" y="640" width="96" height="16">
   <properties>
    <property name="blocked" type="bool" value="true"/>
   </properties>
  </object>
  <object id="187" name="阻挡 160" type="Collision" x="304" y="640" width="32" height="16">
   <properties>
    <property name="blocked" type="bool" value="true"/>
   </properties>
  </object>
  <object id="188" name="阻挡 161" type="Collision" x="384" y="640" width="176" height="16">
   <properties>
    <property name="blocked" type="bool" value="true"/>
   </properties>
  </object>
  <object id="189" name="阻挡 162" type="Collision" x="608" y="640" width="96" height="16">
   <properties>
    <property name="blocked" type="bool" value="true"/>
   </properties>
  </object>
  <object id="190" name="阻挡 163" type="Collision" x="928" y="640" width="96" height="16">
   <properties>
    <property name="blocked" type="bool" value="true"/>
   </properties>
  </object>
  <object id="191" name="阻挡 164" type="Collision" x="0" y="656" width="112" height="16">
   <properties>
    <property name="blocked" type="bool" value="true"/>
   </properties>
  </object>
  <object id="192" name="阻挡 165" type="Collision" x="272" y="656" width="96" height="16">
   <properties>
    <property name="blocked" type="bool" value="true"/>
   </properties>
  </object>
  <object id="193" name="阻挡 166" type="Collision" x="384" y="656" width="48" height="16">
   <properties>
    <property name="blocked" type="bool" value="true"/>
   </properties>
  </object>
  <object id="194" name="阻挡 167" type="Collision" x="464" y="656" width="80" height="16">
   <properties>
    <property name="blocked" type="bool" value="true"/>
   </properties>
  </object>
  <object id="195" name="阻挡 168" type="Collision" x="608" y="656" width="96" height="16">
   <properties>
    <property name="blocked" type="bool" value="true"/>
   </properties>
  </object>
  <object id="196" name="阻挡 169" type="Collision" x="928" y="656" width="96" height="16">
   <properties>
    <property name="blocked" type="bool" value="true"/>
   </properties>
  </object>
  <object id="197" name="阻挡 170" type="Collision" x="0" y="672" width="128" height="16">
   <properties>
    <property name="blocked" type="bool" value="true"/>
   </properties>
  </object>
  <object id="198" name="阻挡 171" type="Collision" x="272" y="672" width="96" height="16">
   <properties>
    <property name="blocked" type="bool" value="true"/>
   </properties>
  </object>
  <object id="199" name="阻挡 172" type="Collision" x="400" y="672" width="32" height="16">
   <properties>
    <property name="blocked" type="bool" value="true"/>
   </properties>
  </object>
  <object id="200" name="阻挡 173" type="Collision" x="464" y="672" width="80" height="16">
   <properties>
    <property name="blocked" type="bool" value="true"/>
   </properties>
  </object>
  <object id="201" name="阻挡 174" type="Collision" x="640" y="672" width="32" height="16">
   <properties>
    <property name="blocked" type="bool" value="true"/>
   </properties>
  </object>
  <object id="202" name="阻挡 175" type="Collision" x="896" y="672" width="128" height="16">
   <properties>
    <property name="blocked" type="bool" value="true"/>
   </properties>
  </object>
  <object id="203" name="阻挡 176" type="Collision" x="0" y="688" width="144" height="16">
   <properties>
    <property name="blocked" type="bool" value="true"/>
   </properties>
  </object>
  <object id="204" name="阻挡 177" type="Collision" x="304" y="688" width="64" height="16">
   <properties>
    <property name="blocked" type="bool" value="true"/>
   </properties>
  </object>
  <object id="205" name="阻挡 178" type="Collision" x="464" y="688" width="64" height="16">
   <properties>
    <property name="blocked" type="bool" value="true"/>
   </properties>
  </object>
  <object id="206" name="阻挡 179" type="Collision" x="864" y="688" width="160" height="16">
   <properties>
    <property name="blocked" type="bool" value="true"/>
   </properties>
  </object>
  <object id="207" name="阻挡 180" type="Collision" x="0" y="704" width="192" height="16">
   <properties>
    <property name="blocked" type="bool" value="true"/>
   </properties>
  </object>
  <object id="208" name="阻挡 181" type="Collision" x="320" y="704" width="32" height="16">
   <properties>
    <property name="blocked" type="bool" value="true"/>
   </properties>
  </object>
  <object id="209" name="阻挡 182" type="Collision" x="448" y="704" width="80" height="16">
   <properties>
    <property name="blocked" type="bool" value="true"/>
   </properties>
  </object>
  <object id="210" name="阻挡 183" type="Collision" x="816" y="704" width="208" height="16">
   <properties>
    <property name="blocked" type="bool" value="true"/>
   </properties>
  </object>
  <object id="211" name="阻挡 184" type="Collision" x="0" y="720" width="368" height="16">
   <properties>
    <property name="blocked" type="bool" value="true"/>
   </properties>
  </object>
  <object id="212" name="阻挡 185" type="Collision" x="432" y="720" width="128" height="16">
   <properties>
    <property name="blocked" type="bool" value="true"/>
   </properties>
  </object>
  <object id="213" name="阻挡 186" type="Collision" x="624" y="720" width="400" height="16">
   <properties>
    <property name="blocked" type="bool" value="true"/>
   </properties>
  </object>
  <object id="214" name="阻挡 187" type="Collision" x="0" y="736" width="1024" height="16">
   <properties>
    <property name="blocked" type="bool" value="true"/>
   </properties>
  </object>
  <object id="215" name="阻挡 188" type="Collision" x="0" y="752" width="1024" height="16">
   <properties>
    <property name="blocked" type="bool" value="true"/>
   </properties>
  </object>
 </objectgroup>
 <objectgroup id="10" name="10 地名">
  <object id="2" name="青岚城" x="156.2" y="492.2" width="90" height="20">
   <text color="#162015">青岚城</text>
  </object>
  <object id="3" name="青岚城" x="155.2" y="491.2" width="90" height="20">
   <text color="#fff2c5">青岚城</text>
  </object>
  <object id="5" name="松风堡" x="236.2" y="124.2" width="90" height="20">
   <text color="#162015">松风堡</text>
  </object>
  <object id="6" name="松风堡" x="235.2" y="123.2" width="90" height="20">
   <text color="#fff2c5">松风堡</text>
  </object>
  <object id="8" name="双桥关" x="732.2" y="140.2" width="90" height="20">
   <text color="#162015">双桥关</text>
  </object>
  <object id="9" name="双桥关" x="731.2" y="139.2" width="90" height="20">
   <text color="#fff2c5">双桥关</text>
  </object>
  <object id="11" name="南泽城" x="764.2" y="524.2" width="90" height="20">
   <text color="#162015">南泽城</text>
  </object>
  <object id="12" name="南泽城" x="763.2" y="523.2" width="90" height="20">
   <text color="#fff2c5">南泽城</text>
  </object>
  <object id="17" name="北桥" x="477.8" y="183.4" width="90" height="20">
   <text color="#162015">北桥</text>
  </object>
  <object id="18" name="北桥" x="476.8" y="182.4" width="90" height="20">
   <text color="#fff2c5">北桥</text>
  </object>
  <object id="19" name="南桥" x="445.8" y="519.4" width="90" height="20">
   <text color="#162015">南桥</text>
  </object>
  <object id="20" name="南桥" x="444.8" y="518.4" width="90" height="20">
   <text color="#fff2c5">南桥</text>
  </object>
  <object id="21" name="月牙湖" x="157.8" y="325.8" width="90" height="20">
   <text color="#162015">月牙湖</text>
  </object>
  <object id="22" name="月牙湖" x="156.8" y="324.8" width="90" height="20">
   <text color="#fff2c5">月牙湖</text>
  </object>
 </objectgroup>
</map>
